!!!!SEGMENT: pl-cz--iii-624--001-008_raszek-waclaw--missa-in-f-sanctus.krn
!!!cenid: 17xx:1066
!!!COM: Raszek, Wacław
!!!COM-rismid: pe30020314
!!!CDT: <1848->1848
!!!CNT:
!!!OPR: Missa in F
!!!OTL: Sanctus
!!!OMV: 008
!!!PDT:
!!!AGN: Sacred; Mass
!!!SMS-siglum: PL-CZ
!!!SMS-shelfmark: III-624
!!!SMS-shelfwork: 001-008 M
!!!SMS-variant:
!!!SMS-altvar:
!!!NIFC-rismid: 300001049
!!!URL-scan: http://repozytorium.nifc.pl/skany/pl-cz-nut--iii-624
!!!ONB-nifc: UWAGA: części Mszy: Kyrie, Gloria, Domine Deus, Cum sancto spiritu, Credo, Et incarnatus, Et resurrexit, Sanctus, Benedictus, Agnus Dei, Dona nobis. Uwaga: partia violino principale tylko w cz. Benedictus
!!!key: F
**kern	**fba	**dynam	**kern	**dynam	**kern	**dynam	**kern	**dynam	**kern	**text	**dynam	**kern	**text	**dynam	**kern	**text	**kern	**text	**kern	**dynam	**kern	**dynam	**kern	**kern
*	*	*	*group4	*	*group4	*	*group4	*	*group3	*	*	*group3	*	*	*group3	*	*group3	*	*group2	*	*group2	*	*group1	*group1
*part12	*part12	*part12	*part11	*part11	*part10	*part10	*part9	*part9	*part8	*part8	*part8	*part7	*part7	*part7	*part6	*part6	*part5	*part5	*part4	*part4	*part3	*part3	*part2	*part1
*staff12	*	*	*staff11	*	*staff10	*	*staff9	*	*staff8	*staff8	*	*staff7	*staff7	*	*staff6	*staff6	*staff5	*staff5	*staff4	*	*staff3	*	*staff2	*staff1
*I"Organo.	*	*	*I"Alto Viola.	*	*I"Violino Secondo.	*	*I"Violino Primo.	*	*I"Baſso.	*	*	*I"Tenore.	*	*	*I"Alto.	*	*I"Canto.	*	*I"Cornu 2.do in F.	*	*I"Cornu Primo. in F.	*	*I"Flauto 2do	*I"Flauto Primo.
*I'org	*	*	*I'a-vla	*	*I'vl 2	*	*I'vl 1	*	*I'B	*	*	*I'T	*	*	*I'A	*	*I'S	*	*I'cor 2 in F	*	*I'cor 1 in F	*	*I'fl 2	*I'fl 1
*Iorgan	*	*	*Iviola	*	*Ivioln	*	*Ivioln	*	*Ibass	*	*	*Itenor	*	*	*Ialto	*	*Isoprn	*	*Icor	*	*Icor	*	*Iflt	*Iflt
*ICklav	*	*	*ICstr	*	*ICstr	*	*ICstr	*	*ICvox	*	*	*ICvox	*	*	*ICvox	*	*ICvox	*	*ICbras	*	*ICbras	*	*ICww	*ICww
*IGcont	*	*	*	*	*	*	*	*	*	*	*	*IGcoro	*	*	*IGcoro	*	*IGcoro	*	*IGcoro	*	*	*	*	*
*clefF4	*	*	*clefC3	*	*clefG2	*	*clefG2	*	*clefF4	*	*	*clefC4	*	*	*clefC3	*	*clefC1	*	*clefG2	*	*clefG2	*	*clefG2	*clefG2
*	*	*	*	*	*	*	*	*	*	*	*	*	*	*	*	*	*	*	*ITrd4c7	*	*ITrd4c7	*	*	*
*k[b-]	*	*	*k[b-]	*	*k[b-]	*	*k[b-]	*	*k[b-]	*	*	*k[b-]	*	*	*k[b-]	*	*k[b-]	*	*k[b-]	*	*k[b-]	*	*k[b-]	*k[b-]
*F:	*	*	*F:	*	*F:	*	*F:	*	*F:	*	*	*F:	*	*	*F:	*	*F:	*	*F:	*	*F:	*	*F:	*F:
*M3/4	*	*	*M3/4	*	*M3/4	*	*M3/4	*	*M3/4	*	*	*M3/4	*	*	*M3/4	*	*M3/4	*	*M3/4	*	*M3/4	*	*M3/4	*M3/4
=1	=1	=1	=1	=1	=1	=1	=1	=1	=1	=1	=1	=1	=1	=1	=1	=1	=1	=1	=1	=1	=1	=1	=1	=1
*	*	*	*	*	*	*	*	*	*2\right	*	*	*2\right	*	*	*2\right	*	*2\right	*	*	*	*2\right	*	*	*2\right
!LO:TX:a:t=T.	!	!	!	!	!	!	!LO:TX:a:t=T&colon;	!	!	!	!	!	!	!	!	!	!	!	!	!	!	!	!	!
!LO:TX:a:B:t=adagio	!	!	!LO:TX:a:B:t=adagio	!	!LO:TX:a:B:t=adagio	!	!LO:TX:a:B:t=Adag&colon;	!	!LO:TX:a:B:t=adagio	!	!	!LO:TX:a:B:t=adagio	!	!	!LO:TX:a:B:t=adagio	!	!LO:TX:b:B:t=adagio	!	!LO:TX:a:B:t=adagio	!	!LO:TX:a:B:t=adagio	!	!LO:TX:a:B:t=adagio	!LO:TX:a:B:t=adagio
8F\L	.	.	8c\L	.	8a/L	.	8ff\L	.	2.F\	San-	.	2.c\	San-	.	2a\	San-	2ff\	San-	2A/	.	2f\	.	2.a/	2.ff\
8F\	.	.	8c\	.	8a/J	.	8ff\	.	.	.	.	.	.	.	.	.	.	.	.	.	.	.	.	.
*	*	*	*	*	*tremolo	*	*	*	*	*	*	*	*	*	*	*	*	*	*	*	*	*	*	*
8F\	.	.	8c\	.	8a/L	.	8ff\	.	.	.	.	.	.	.	.	.	.	.	.	.	.	.	.	.
8F\	.	.	8c\	.	8a/	.	8ff\	.	.	.	.	.	.	.	.	.	.	.	.	.	.	.	.	.
8F\	.	.	8c\	.	8a/	.	8ff\	.	.	.	.	.	.	.	4g\	-ctus	4ff\	-ctus	4r	.	4r	.	.	.
8F\J	.	.	8c\J	.	8a/J	.	8ff\J	.	.	.	.	.	.	.	.	.	.	.	.	.	.	.	.	.
=2	=2	=2	=2	=2	=2	=2	=2	=2	=2	=2	=2	=2	=2	=2	=2	=2	=2	=2	=2	=2	=2	=2	=2	=2
*2\right	*	*	*2\right	*	*	*	*	*	*	*	*	*	*	*	*	*	*	*	*	*	*	*	*	*
*tremolo	*	*	*tremolo	*	*2\right	*	*	*	*	*	*	*	*	*	*	*ij	*	*ij	*	*	*	*	*2\right	*
8G\L	7	.	8c\L	.	8b-\L	.	(8ff\L	.	2G\	.	.	2.c\	-ctus	.	2b-\	San-	8ff\L	San-	2.r	.	2.r	.	2.b-\	8ff\L
8G\	6	.	8c\	.	8b-\	.	8ee\)	.	.	.	.	.	.	.	.	.	8ee\J	.	.	.	.	.	.	8ee\J
8G\	.	.	8c\	.	8b-\	.	8ee\	.	.	.	.	.	.	.	.	.	2ee\	-ctus	.	.	.	.	.	2ee\
8G\	.	.	8c\	.	8b-\	.	8ee\	.	.	.	.	.	.	.	.	.	.	.	.	.	.	.	.	.
8G\	.	.	8c\	.	8b-\	.	8ee\	.	4G\	-ctus	.	.	.	.	4b-\	-ctus	.	.	.	.	.	.	.	.
8G\J	.	.	8c\J	.	8b-\J	.	8ee\J	.	.	.	.	.	.	.	.	.	.	.	.	.	.	.	.	.
=3	=3	=3	=3	=3	=3	=3	=3	=3	=3	=3	=3	=3	=3	=3	=3	=3	=3	=3	=3	=3	=3	=3	=3	=3
*	*	*	*	*	*	*	*	*	*	*ij	*	*	*ij	*	*	*	*	*	*	*	*	*	*	*
8A\L	6 -5	.	8A/L	.	8ccL 8f/	.	8ee-X\L	.	2.A\	San-	.	2.c\	San-	.	2.f\	San-	[2.ee-X\	San-	2.F/	.	2.f\	.	2.cc\	2.ee-X\
8A\	.	.	8A/	.	8cc 8f/	.	8ee-\	.	.	.	.	.	.	.	.	.	.	.	.	.	.	.	.	.
8A\	.	.	8A/	.	8cc 8f/	.	8ee-\	.	.	.	.	.	.	.	.	.	.	.	.	.	.	.	.	.
8A\	.	.	8A/	.	8cc 8f/	.	8ee-\	.	.	.	.	.	.	.	.	.	.	.	.	.	.	.	.	.
8A\	.	.	8A/	.	8cc 8f/	.	8ee-\	.	.	.	.	.	.	.	.	.	.	.	.	.	.	.	.	.
8A\J	.	.	8A/J	.	8ccJ 8f/	.	8ee-\J	.	.	.	.	.	.	.	.	.	.	.	.	.	.	.	.	.
=4	=4	=4	=4	=4	=4	=4	=4	=4	=4	=4	=4	=4	=4	=4	=4	=4	=4	=4	=4	=4	=4	=4	=4	=4
!	!	!	!	!	!	!	!LO:SIC:v:s=(8ee-\L	!	!	!	!	!	!	!	!	!	!	!	!	!	!	!	!	!LO:SIC:v:s=8ee-\L
8B-\L	.	.	8B-/L	.	8f/L	.	(8ee\L	.	[2B-\	ctus	.	2.B-\	-ctus	.	2.f\	-ctus	8ee-\L]	.	2F/	.	2f\	.	8cc\L	8ee\L
8B-\	.	.	8B-/	.	8f/	.	8dd\)	.	.	.	.	.	.	.	.	.	8dd\J	.	.	.	.	.	8dd\J	8dd\J
8B-\	.	.	8B-/	.	8f/	.	8dd\|	.	.	.	.	.	.	.	.	.	2dd\	-ctus	.	.	.	.	2dd\	2dd\
8B-\	.	.	8B-/	.	8f/	.	8dd\|	.	.	.	.	.	.	.	.	.	.	.	.	.	.	.	.	.
8B-\	.	.	8B-/	.	8f/	.	8dd\	.	4B-\]	.	.	.	.	.	.	.	.	.	4r	.	4r	.	.	.
8B-\J	.	.	8B-/J	.	8f/J	.	8dd\J	.	.	.	.	.	.	.	.	.	.	.	.	.	.	.	.	.
=5	=5	=5	=5	=5	=5	=5	=5	=5	=5	=5	=5	=5	=5	=5	=5	=5	=5	=5	=5	=5	=5	=5	=5	=5
*	*	*	*	*	*	*	*2\right	*	*	*	*	*	*	*	*	*	*	*	*	*	*	*	*	*
*	*	*	*	*	*	*	*tremolo	*	*	*	*	*	*	*	*	*	*	*	*2\right	*	*	*	*	*
8Bn\L	6 5	.	8d\L	.	8g/L	.	8ff\L	.	2.Bn\	San-	.	2.d\	San-	.	2.g\	San-	2.ff\	San-	2.g\	.	2.g\	.	2.dd\	2.ff\
8B\	.	.	8d\	.	8g/	.	8ff\	.	.	.	.	.	.	.	.	.	.	.	.	.	.	.	.	.
8B\	.	.	8d\	.	8g/	.	8ff\	.	.	.	.	.	.	.	.	.	.	.	.	.	.	.	.	.
8B\	.	.	8d\	.	8g/	.	8ff\	.	.	.	.	.	.	.	.	.	.	.	.	.	.	.	.	.
8B\	.	.	8d\	.	8g/	.	8ff\	.	.	.	.	.	.	.	.	.	.	.	.	.	.	.	.	.
8B\J	.	.	8d\J	.	8g/J	.	8ff\J	.	.	.	.	.	.	.	.	.	.	.	.	.	.	.	.	.
*Xtremolo	*	*	*Xtremolo	*	*Xtremolo	*	*Xtremolo	*	*	*	*	*	*	*	*	*	*	*	*	*	*	*	*	*
=6	=6	=6	=6	=6	=6	=6	=6	=6	=6	=6	=6	=6	=6	=6	=6	=6	=6	=6	=6	=6	=6	=6	=6	=6
!	!	!	!	!	!	!	!	!LO:DY:a	!	!	!	!	!	!	!	!	!	!	!	!	!	!	!	!
4c\	n	.	4c\	.	4g/	.	8een\L	p	4c\	-ctus	.	4c\	-ctus	.	2g\	-ctus	4een\	-ctus	4c/	.	4g\	.	4cc\	4een\
*	*	*	*	*	*	*	*	*	*	*Xij	*	*	*Xij	*	*	*	*	*Xij	*	*	*	*	*	*
.	.	.	.	.	.	.	8ccc\	.	.	.	.	.	.	.	.	.	.	.	.	.	.	.	.	.
4r	.	.	8r	.	8r	.	8cc\	.	4r	.	.	4r	.	.	.	.	4r	.	4r	.	4r	.	4r	4r
!	!	!	!	!	!	!LO:DY:a:t=po.	!	!	!	!	!	!	!	!	!	!	!	!	!	!	!	!	!	!
.	.	.	8c\L	.	8e/L	p	8cc\J	.	.	.	.	.	.	.	.	.	.	.	.	.	.	.	.	.
4r	.	.	8c\	.	8e/	.	(16ff\LL	.	4r	.	.	4r	.	.	4r	.	4r	.	4r	.	4r	.	4r	4r
.	.	.	.	.	.	.	16ee\	.	.	.	.	.	.	.	.	.	.	.	.	.	.	.	.	.
.	.	.	8c\J	.	8e/J	.	16dd\	.	.	.	.	.	.	.	.	.	.	.	.	.	.	.	.	.
.	.	.	.	.	.	.	16cc\JJ)	.	.	.	.	.	.	.	.	.	.	.	.	.	.	.	.	.
=7	=7	=7	=7	=7	=7	=7	=7	=7	=7	=7	=7	=7	=7	=7	=7	=7	=7	=7	=7	=7	=7	=7	=7	=7
*	*	*	*tremolo	*	*tremolo	*	*	*	*	*	*	*	*	*	*	*	*	*	*	*	*	*	*	*
!	!	!	!LO:ACC:color=grey	!	!	!	!	!	!	!	!	!	!	!	!	!	!	!	!	!	!	!	!	!LO:TX:t=2:color=blue
1.r	.	.	8Bn/L	.	8d/L	.	4.gg\	.	1.r	.	.	1.r	.	.	1.r	.	1.r	.	1.r	.	1.r	.	1.r	1.r
.	.	.	8B/	.	8d/	.	.	.	.	.	.	.	.	.	.	.	.	.	.	.	.	.	.	.
.	.	.	8B/	.	8d/	.	.	.	.	.	.	.	.	.	.	.	.	.	.	.	.	.	.	.
.	.	.	8B/	.	8d/	.	16aa\LL	.	.	.	.	.	.	.	.	.	.	.	.	.	.	.	.	.
.	.	.	.	.	.	.	16gg\JJ	.	.	.	.	.	.	.	.	.	.	.	.	.	.	.	.	.
!	!	!	!	!	!	!	!LO:LB:g=original	!	!	!	!	!	!	!	!	!	!	!	!	!	!	!	!	!
.	.	.	8B/	.	8d/	.	16gg\LL	.	.	.	.	.	.	.	.	.	.	.	.	.	.	.	.	.
.	.	.	.	.	.	.	16ff\	.	.	.	.	.	.	.	.	.	.	.	.	.	.	.	.	.
.	.	.	8B/J	.	8d/J	.	16ee\	.	.	.	.	.	.	.	.	.	.	.	.	.	.	.	.	.
.	.	.	.	.	.	.	16dd\JJ	.	.	.	.	.	.	.	.	.	.	.	.	.	.	.	.	.
=8	=8	=8	=8	=8	=8	=8	=8	=8	=8	=8	=8	=8	=8	=8	=8	=8	=8	=8	=8	=8	=8	=8	=8	=8
.	.	.	8c\L	.	8g/L	.	16dd\LL	.	.	.	.	.	.	.	.	.	.	.	.	.	.	.	.	.
.	.	.	.	.	.	.	16ee\	.	.	.	.	.	.	.	.	.	.	.	.	.	.	.	.	.
.	.	.	8c\	.	8g/	.	16ff\	.	.	.	.	.	.	.	.	.	.	.	.	.	.	.	.	.
.	.	.	.	.	.	.	16ee\JJ	.	.	.	.	.	.	.	.	.	.	.	.	.	.	.	.	.
.	.	.	8c\	.	8g/	.	8ee\L	.	.	.	.	.	.	.	.	.	.	.	.	.	.	.	.	.
.	.	.	8c\	.	8g/	.	8gg\J	.	.	.	.	.	.	.	.	.	.	.	.	.	.	.	.	.
.	.	.	8c\	.	8g/	.	16gg\LL	.	.	.	.	.	.	.	.	.	.	.	.	.	.	.	.	.
.	.	.	.	.	.	.	16ff\	.	.	.	.	.	.	.	.	.	.	.	.	.	.	.	.	.
.	.	.	8c\J	.	8g/J	.	16ee\	.	.	.	.	.	.	.	.	.	.	.	.	.	.	.	.	.
.	.	.	.	.	.	.	16dd\JJ	.	.	.	.	.	.	.	.	.	.	.	.	.	.	.	.	.
!	!	!	!LO:LB:g=original	!	!	!	!	!	!	!	!	!	!	!	!	!	!LO:LB:g=original	!	!	!	!	!	!	!LO:PB:g=original
=9	=9	=9	=9	=9	=9	=9	=9	=9	=9	=9	=9	=9	=9	=9	=9	=9	=9	=9	=9	=9	=9	=9	=9	=9
!	!	!	!	!	!	!LO:DY:a:t=for	!	!LO:DY:a:t=forte	!	!	!	!	!	!	!	!	!	!	!	!	!	!	!	!
8D\L	6\	.	8f\L	.	8g/L	f	8bn\L	f	2D\	San-	.	2f\	San-	.	2g\	San-	2bn\	San-	8g\L	.	4g\	.	2.ff\	2.bbn\
8D\	.	.	8f\	.	8g/	.	8b\J	.	.	.	.	.	.	.	.	.	.	.	8g\	.	.	.	.	.
*	*	*	*	*	*	*	*tremolo	*	*	*	*	*	*	*	*	*	*	*	*	*	*tremolo	*	*	*
8D\	.	.	8f\	.	8g/	.	8b\L	.	.	.	.	.	.	.	.	.	.	.	8g\	.	8g\L	.	.	.
8D\	.	.	8f\	.	8g/	.	8b\	.	.	.	.	.	.	.	.	.	.	.	8g\	.	8g\	.	.	.
8D\	.	.	8f\	.	8g/	.	8b\	.	4D\	-ctus	.	4f\	-ctus	.	4g\	-ctus	4b\	-ctus	8g\	.	8g\	.	.	.
*	*	*	*	*	*	*	*	*	*	*	*	*	*	*	*	*Xij	*	*	*	*	*	*	*	*
8D\J	.	.	8f\J	.	8g/J	.	8b\J	.	.	.	.	.	.	.	.	.	.	.	8g\J	.	8g\J	.	.	.
*	*	*	*	*	*	*	*Xtremolo	*	*	*	*	*	*	*	*	*	*	*	*	*	*	*	*	*
!LO:LB:g=original	!	!	!	!	!	!	!	!	!LO:LB:g=original	!	!	!	!	!	!	!	!	!	!	!	!	!	!	!
=10	=10	=10	=10	=10	=10	=10	=10	=10	=10	=10	=10	=10	=10	=10	=10	=10	=10	=10	=10	=10	=10	=10	=10	=10
*tremolo	*	*	*	*	*	*	*	*	*	*	*	*	*	*	*	*	*	*ij	*tremolo	*	*	*	*	*
8E\L	6	.	8e\L	.	8g/L	.	8cc\L	.	4.E\	Do-	.	4.e\	Do-	.	4.g\	Do-	2cc\	San-	8c/L	.	8g\L	.	2.gg\	2.ccc\
8E\	.	.	8e\	.	8g/	.	8cc\J	.	.	.	.	.	.	.	.	.	.	.	8c/	.	8g\	.	.	.
*	*	*	*	*	*	*	*tremolo	*	*	*	*	*	*	*	*	*	*	*	*	*	*	*	*	*
8E\	.	.	8e\	.	8g/	.	8cc\L	.	.	.	.	.	.	.	.	.	.	.	8c/	.	8g\	.	.	.
8E\	.	.	8e\	.	8g/	.	8cc\	.	8E\	-mi-	.	8c\	-mi-	.	8g\	-mi-	.	.	8c/	.	8g\	.	.	.
8E\	.	.	8e\	.	8g/	.	8cc\	.	4E\	-nus	.	4c\	-nus	.	4g\	-nus	4cc\	-ctus	8c/	.	8g\	.	.	.
*	*	*	*	*	*	*	*	*	*	*	*	*	*	*	*	*	*	*Xij	*	*	*	*	*	*
8E\J	.	.	8e\J	.	8g/J	.	8cc\J	.	.	.	.	.	.	.	.	.	.	.	8c/J	.	8g\J	.	.	.
*	*	*	*	*	*	*	*Xtremolo	*	*	*	*	*	*	*	*	*	*	*	*	*	*	*	*	*
!	!	!	!	!	!	!	!	!	!	!	!	!	!	!	!	!	!	!	!LO:LB:g=original	!	!LO:LB:g=original	!	!	!
=11	=11	=11	=11	=11	=11	=11	=11	=11	=11	=11	=11	=11	=11	=11	=11	=11	=11	=11	=11	=11	=11	=11	=11	=11
*	*	*	*	*	*^	*	*	*	*	*	*	*	*	*	*	*	*	*	*	*	*	*	*	*
*	*	*	*	*	*	*	*	*	*	*	*	*	*	*ij	*	*	*ij	*	*	*	*	*	*	*	*
8E\L	6 -5	.	8e\L	.	8cc/L	8g\L	.	8cc\L	.	2E\	De-	.	4.B-X\	Do-	.	4.g\	Do-	4.cc\	Do-	8c/L	.	8g\L	.	2.gg\	2.bb-X\
8E\	.	.	8e\	.	8cc/	8g\	.	8bb-X\	.	.	.	.	.	.	.	.	.	.	.	8c/	.	8g\	.	.	.
8E\	.	.	8e\	.	8cc/	8g\	.	8bb-\	.	.	.	.	.	.	.	.	.	.	.	8c/	.	8g\	.	.	.
8E\	.	.	8e\	.	8cc/	8g\	.	8bb-\	.	.	.	.	8B-\	-mi-	.	8g\	-mi-	8cc\	-mi-	8c/	.	8g\	.	.	.
8E\	.	.	8e\	.	8cc/	8g\	.	8bb-\	.	4E\	-us	.	4B-\	-nus	.	4g\	-nus	4cc\	-nus	8c/	.	8g\	.	.	.
8E\J	.	.	8e\J	.	8cc/J	8g\J	.	8bb-\J	.	.	.	.	.	.	.	.	.	.	.	8c/J	.	8g\J	.	.	.
*	*	*	*	*	*	*	*	*	*	*	*	*	*	*Xij	*	*	*Xij	*	*	*Xtremolo	*	*Xtremolo	*	*	*
*	*	*	*	*	*v	*v	*	*	*	*	*	*	*	*	*	*	*	*	*	*	*	*	*	*	*
=12	=12	=12	=12	=12	=12	=12	=12	=12	=12	=12	=12	=12	=12	=12	=12	=12	=12	=12	=12	=12	=12	=12	=12	=12
8F\L	.	.	8f\L	.	8cc\L	.	8aa\L	.	4.F\	Sa-	.	2A\	De-	.	2a\	De-	2cc\	De-	2f\	.	2a\	.	2ff\	2aa\
8F\	.	.	8f\	.	8cc\	.	8aa\J	.	.	.	.	.	.	.	.	.	.	.	.	.	.	.	.	.
*	*	*	*	*	*	*	*tremolo	*	*	*	*	*	*	*	*	*	*	*	*	*	*	*	*	*
8F\	.	.	8f\	.	8cc\	.	8aa\L	.	.	.	.	.	.	.	.	.	.	.	.	.	.	.	.	.
8F\	.	.	8f\	.	8cc\	.	8aa\	.	8F\	-ba-	.	.	.	.	.	.	.	.	.	.	.	.	.	.
8F\	.	.	8f\	.	8cc\	.	8aa\	.	4F\	-oth	.	4A\	-us	.	4a\	-us	4cc\	-us	4r	.	4r	.	4r	4r
8F\J	.	.	8f\J	.	8cc\J	.	8aa\J	.	.	.	.	.	.	.	.	.	.	.	.	.	.	.	.	.
*	*	*	*	*	*	*	*Xtremolo	*	*	*	*	*	*	*	*	*	*	*	*	*	*	*	*	*
!	!	!	!	!	!LO:LB:g=original	!	!	!	!	!	!	!	!	!	!	!	!	!	!	!	!	!	!LO:LB:g=original	!
=13	=13	=13	=13	=13	=13	=13	=13	=13	=13	=13	=13	=13	=13	=13	=13	=13	=13	=13	=13	=13	=13	=13	=13	=13
*	*	*	*	*	*	*	*	*	*	*ij	*	*	*	*	*	*	*	*	*	*	*	*	*	*
8B-\L	6	.	8d\L	.	8dd\L	.	16gg\LL	.	2B-\	Sa-	.	2d\	Sa-	.	2g\	Sa-	2dd\	Sa-	4r	.	4r	.	4r	4r
.	.	.	.	.	.	.	16aa\	.	.	.	.	.	.	.	.	.	.	.	.	.	.	.	.	.
8B-\	.	.	8d\	.	8dd\	.	16bb-\	.	.	.	.	.	.	.	.	.	.	.	.	.	.	.	.	.
.	.	.	.	.	.	.	16aa\JJ	.	.	.	.	.	.	.	.	.	.	.	.	.	.	.	.	.
8B-\	.	.	8d\	.	8dd\	.	8gg\L	.	.	.	.	.	.	.	.	.	.	.	4g\	.	4g\	.	4gg\	4ddd\
8B-\J	.	.	8d\J	.	8dd\	.	8gg\	.	.	.	.	.	.	.	.	.	.	.	.	.	.	.	.	.
*Xtremolo	*	*	*Xtremolo	*	*	*	*	*	*	*	*	*	*	*	*	*	*	*	*	*	*	*	*	*
8Bn\L	6	.	8g\L	.	8dd\	.	8gg\	.	4Bn\	-ba-	.	4f\	-ba-	.	4g\	-ba-	4dd\	-ba-	4g\	.	4g\	.	4gg\	4ddd\
8B\J	5	.	8g\J	.	8dd\J	.	8ff\J	.	.	.	.	.	.	.	.	.	.	.	.	.	.	.	.	.
*	*	*	*	*	*Xtremolo	*	*	*	*	*	*	*	*	*	*	*	*	*	*	*	*	*	*	*
!	!	!	!	!	!	!	!	!	!	!	!	!	!	!	!LO:LB:g=original	!	!	!	!	!	!	!	!	!
=14	=14	=14	=14	=14	=14	=14	=14	=14	=14	=14	=14	=14	=14	=14	=14	=14	=14	=14	=14	=14	=14	=14	=14	=14
4c\	.	.	4b-\	.	4g/	.	4ee\	.	4c,<\	-oth	.	4e\	-oth	.	4g\	-oth	4cc\	-oth	4c/	.	4g\	.	4gg\	4ccc\
*	*	*	*	*	*	*	*	*	*	*Xij	*	*	*	*	*	*	*	*	*	*	*	*	*	*
!	!	!	!	!	!	!	!	!	!	!	!LO:DY:b:t=po	!	!	!	!	!	!	!	!	!	!	!	!	!
4r	.	.	4r	.	4r	.	4r	.	4c\	S(an)-	p	4r	.	.	4r	.	4r	.	4r	.	4r	.	4r	4r
4r	.	.	4r	.	4r	.	4r	.	4c\	-ctus	.	4r	.	.	4r	.	4r	.	4r	.	4r	.	4r	4r
!	!	!	!	!	!	!	!	!	!	!	!	!LO:LB:g=original	!	!	!	!	!	!	!	!	!	!	!	!
=15	=15	=15	=15	=15	=15	=15	=15	=15	=15	=15	=15	=15	=15	=15	=15	=15	=15	=15	=15	=15	=15	=15	=15	=15
*	*	*	*	*	*	*	*	*	*	*ij	*	*	*	*	*	*	*	*	*	*	*	*	*	*
!	!	!LO:DY:a:t=po	!	!LO:DY:a:t=p.	!	!	!	!	!	!	!	!	!	!	!	!	!	!	!	!	!	!	!	!
4C/	.	p	4c/	p	8r	.	8r	.	2.c\	S(an)-	.	1.r	.	.	1.r	.	1.r	.	2.r	.	1.r	.	1.r	1.r
!	!	!	!	!	!	!LO:DY:a:t=po:rj	!	!LO:DY:a	!	!	!	!	!	!	!	!	!	!	!	!	!	!	!	!
.	.	.	.	.	16e/LL	p	16gg\LL	p	.	.	.	.	.	.	.	.	.	.	.	.	.	.	.	.
.	.	.	.	.	16f/JJ	.	16aa\JJ	.	.	.	.	.	.	.	.	.	.	.	.	.	.	.	.	.
!	!	!	!	!	!	!	!LO:LB:g=original	!	!	!	!	!	!	!	!	!	!	!	!	!	!	!	!	!
4r	.	.	4C/	.	8e/L	.	8gg\L	.	.	.	.	.	.	.	.	.	.	.	.	.	.	.	.	.
.	.	.	.	.	8e/	.	8gg\	.	.	.	.	.	.	.	.	.	.	.	.	.	.	.	.	.
4r	.	.	4r	.	(8g/	.	(8bb-\	.	.	.	.	.	.	.	.	.	.	.	.	.	.	.	.	.
.	.	.	.	.	8e/J)	.	8gg\J)	.	.	.	.	.	.	.	.	.	.	.	.	.	.	.	.	.
=16	=16	=16	=16	=16	=16	=16	=16	=16	=16	=16	=16	=16	=16	=16	=16	=16	=16	=16	=16	=16	=16	=16	=16	=16
4C/	.	.	4c/	.	4e/	.	(4gg\	.	2.C/	-ctus	.	.	.	.	.	.	.	.	2.r	.	.	.	.	.
*	*	*	*	*	*	*	*	*	*	*Xij	*	*	*	*	*	*	*	*	*	*	*	*	*	*
4r	.	.	4C/	.	8f/L	.	8aa\L)	.	.	.	.	.	.	.	.	.	.	.	.	.	.	.	.	.
.	.	.	.	.	16a/L	.	16ff\L	.	.	.	.	.	.	.	.	.	.	.	.	.	.	.	.	.
.	.	.	.	.	16b-/JJ	.	16gg\JJ	.	.	.	.	.	.	.	.	.	.	.	.	.	.	.	.	.
4r	.	.	4r	.	8a/L	.	8ff\L	.	.	.	.	.	.	.	.	.	.	.	.	.	.	.	.	.
.	.	.	.	.	8a/J	.	8ff\J	.	.	.	.	.	.	.	.	.	.	.	.	.	.	.	.	.
=17	=17	=17	=17	=17	=17	=17	=17	=17	=17	=17	=17	=17	=17	=17	=17	=17	=17	=17	=17	=17	=17	=17	=17	=17
4C/	.	.	4c/	.	4a/	.	4ff\	.	2C/	De-	.	2.r	.	.	2.r	.	2.r	.	2.r	.	2.r	.	2.r	2.r
4r	.	.	4C/	.	8g/L	.	8ee\L	.	.	.	.	.	.	.	.	.	.	.	.	.	.	.	.	.
.	.	.	.	.	16e/L	.	16cc\L	.	.	.	.	.	.	.	.	.	.	.	.	.	.	.	.	.
.	.	.	.	.	16f/JJ	.	16dd\JJ	.	.	.	.	.	.	.	.	.	.	.	.	.	.	.	.	.
4r	.	.	4r	.	8e/L	.	8cc\L	.	4C/	-us	.	.	.	.	.	.	.	.	.	.	.	.	.	.
.	.	.	.	.	8e/J	.	8cc\J	.	.	.	.	.	.	.	.	.	.	.	.	.	.	.	.	.
=18	=18	=18	=18	=18	=18	=18	=18	=18	=18	=18	=18	=18	=18	=18	=18	=18	=18	=18	=18	=18	=18	=18	=18	=18
*	*	*	*	*	*	*	*	*	*	*	*	*	*	*	*	*ij	*	*ij	*	*	*	*	*	*
!	!	!	!	!	!	!	!	!	!	!	!	!	!	!LO:DY:a:t=po.	!	!	!	!	!	!LO:DY:a:t=p.	!	!LO:DY:t=po.	!	!
4D/	6\	.	4G/	.	4f/	.	4bn\	.	2D/	Sa-	.	2G/	Sa-	p	2f\	Sa-	2bn\	Sa-	4g\	p	4g\	p	4ff\	4bbn\
4D/	.	.	4G/	.	4f/	.	4b\	.	.	.	.	.	.	.	.	.	.	.	4g\	.	4g\	.	4ff\	4bb\
4D/	.	.	4G/	.	4f/	.	4b\	.	4D/	-ba-	.	4G/	-ba-	.	4f\	-ba-	4b\	-ba-	4g\	.	4g\	.	4ff\	4bb\
=19	=19	=19	=19	=19	=19	=19	=19	=19	=19	=19	=19	=19	=19	=19	=19	=19	=19	=19	=19	=19	=19	=19	=19	=19
!	!	!	!	!	!	!	!	!	!	!	!	!	!	!	!	!	!LO:SIC:v:s=2cc;\	!	!	!	!	!	!	!
2C;/	.	.	2G/	.	2e;/	.	2cc;\	.	2C/	-oth.	.	4G/	-oth	.	2e;\	-oth	2b-;\	-oth	2c/	.	2g\	.	2ee\	2ccc\
*	*	*	*	*	*	*	*	*	*	*	*	*	*	*	*	*Xij	*	*Xij	*	*	*	*	*	*
.	.	.	.	.	.	.	.	.	.	.	.	4r	.	.	.	.	.	.	.	.	.	.	.	.
!	!	!	!	!	!	!	!	!	!	!	!	!	!	!	!	!	!	!	!	!	!	!	!LO:TX:b:i:t=Seque Pleni	!
4r	.	.	4r	.	4r	.	4r	.	4r	.	.	4r	.	.	4r	.	4r	.	4r	.	4r	.	4r	4r
!LO:LB:g=original	!	!	!LO:LB:g=original	!	!	!	!LO:LB:g=original	!	!LO:LB:g=original	!	!	!	!	!	!	!	!LO:LB:g=original	!	!	!	!	!	!LO:PB:g=original	!LO:LB:g=original
=20||	=20||	=20||	=20||	=20||	=20||	=20||	=20||	=20||	=20||	=20||	=20||	=20||	=20||	=20||	=20||	=20||	=20||	=20||	=20||	=20||	=20||	=20||	=20||	=20||
*M4/4	*	*	*M4/4	*	*M4/4	*	*M4/4	*	*M4/4	*	*	*M4/4	*	*	*M4/4	*	*M4/4	*	*M4/4	*	*M4/4	*	*M4/4	*M4/4
*met(c)	*	*	*met(c)	*	*met(c)	*	*met(c)	*	*met(c)	*	*	*met(c)	*	*	*met(c)	*	*met(c)	*	*met(c)	*	*met(c)	*	*met(c)	*met(c)
*	*	*	*	*	*	*	*^	*	*	*	*	*	*	*	*	*	*	*	*	*	*	*	*	*
*	*	*	*	*	*tremolo	*	*	*	*	*	*	*	*	*	*	*	*	*	*	*	*	*	*	*	*
!LO:TX:a:t=T.	!	!	!	!	!	!	!	!	!	!	!	!	!	!	!	!	!	!	!	!	!	!	!	!	!
!LO:TX:b:i:t=Pleni	!	!	!LO:TX:b:i:t=Pleni	!	!LO:TX:b:i:t=Pleni	!	!LO:TX:b:i:t=Pleni	!	!	!	!	!	!	!	!	!	!	!	!	!LO:TX:b:i:t=Pleni	!	!LO:TX:b:i:t=Pleni	!	!LO:TX:b:i:t=Pleni	!LO:TX:b:i:t=Pleni
!LO:TX:a:B:t=all°&colon;	!	!	!LO:TX:a:B:t=all°&colon;	!	!LO:TX:a:B:t=all°&colon;	!	!LO:TX:a:t=Allo	!	!LO:DY:a:t=for&colon;	!LO:TX:a:B:t=all°&colon;	!	!	!LO:TX:a:B:t=all°&colon;	!	!	!LO:TX:a:B:t=all°&colon;	!	!LO:TX:b:B:t=all°&colon;	!	!LO:TX:a:B:t=all°&colon;	!LO:TX:a:t=Pleni	!LO:TX:a:B:t=all°&colon;	!	!LO:TX:a:B:t=all°&colon;	!LO:TX:a:B:t=all°&colon;
8F\L	.	.	8f\L	.	16a/LL	.	4ff 4a/	4f\	f	(4F\	Ple-	.	2c\	Ple-	.	2a\	Ple-	2ff\	Ple-	2f\	.	2a\	.	2a/	2ff\
.	.	.	.	.	16a/	.	.	.	.	.	.	.	.	.	.	.	.	.	.	.	.	.	.	.	.
8F\	.	.	8f\	.	16a/	.	.	.	.	.	.	.	.	.	.	.	.	.	.	.	.	.	.	.	.
.	.	.	.	.	16a/	.	.	.	.	.	.	.	.	.	.	.	.	.	.	.	.	.	.	.	.
8A\	6	.	8c\	.	16a/	.	16ff\LL	4ryy	.	4A\)	.	.	.	.	.	.	.	.	.	.	.	.	.	.	.
.	.	.	.	.	16a/	.	16ee\	.	.	.	.	.	.	.	.	.	.	.	.	.	.	.	.	.	.
8A\J	.	.	8c\J	.	16a/	.	16ff\	.	.	.	.	.	.	.	.	.	.	.	.	.	.	.	.	.	.
.	.	.	.	.	16a/JJ	.	16gg\JJ	.	.	.	.	.	.	.	.	.	.	.	.	.	.	.	.	.	.
8d\L	.	.	8d\L	.	16a/LL	.	4ff\	4ryy	.	4d\	-ni	.	4d\	-ni	.	4a\	-ni	4ff\	-ni	4f\	.	4a\	.	4dd\	4ff\
.	.	.	.	.	16a/	.	.	.	.	.	.	.	.	.	.	.	.	.	.	.	.	.	.	.	.
8d\	.	.	8d\	.	16a/	.	.	.	.	.	.	.	.	.	.	.	.	.	.	.	.	.	.	.	.
.	.	.	.	.	16a/	.	.	.	.	.	.	.	.	.	.	.	.	.	.	.	.	.	.	.	.
8c\	6 4	.	8c\	.	16a/	.	4ff\	4ryy	.	4c\	s(un)t	.	4d\	s(un)t	.	4a\	s(un)t	4ff\	s(un)t	4f\	.	4a\	.	4dd\	4ff\
.	.	.	.	.	16a/	.	.	.	.	.	.	.	.	.	.	.	.	.	.	.	.	.	.	.	.
8c\J	.	.	8c\J	.	16a/	.	.	.	.	.	.	.	.	.	.	.	.	.	.	.	.	.	.	.	.
.	.	.	.	.	16a/JJ	.	.	.	.	.	.	.	.	.	.	.	.	.	.	.	.	.	.	.	.
*	*	*	*	*	*Xtremolo	*	*	*	*	*	*	*	*	*	*	*	*	*	*	*	*	*	*	*	*
*	*	*	*	*	*	*	*v	*v	*	*	*	*	*	*	*	*	*	*	*	*	*	*	*	*	*
=21	=21	=21	=21	=21	=21	=21	=21	=21	=21	=21	=21	=21	=21	=21	=21	=21	=21	=21	=21	=21	=21	=21	=21	=21
.	.	.	.	.	.	.	16qqgg/	.	.	.	.	.	.	.	.	.	.	.	.	.	.	.	.	.
4Bn\	6 5	.	4d\	.	4g/	.	8ff\L	.	4Bn\	Cae-	.	4d\	Cae-	.	4g\	Cae-	4ff\	Cae-	4g\	.	4g\	.	4dd\	4ff\
.	.	.	.	.	.	.	16ee\L	.	.	.	.	.	.	.	.	.	.	.	.	.	.	.	.	.
.	.	.	.	.	.	.	16ff\JJ	.	.	.	.	.	.	.	.	.	.	.	.	.	.	.	.	.
4c\	.	.	4c\	.	4g/	.	4ee\	.	4c\	-li	.	4c\	-li	.	4g\	-li	4ee\	-li	4c/	.	4g\	.	4cc\	4ee\
4r	.	.	4r	.	2r	.	16ff\LL	.	4r	.	.	4r	.	.	4r	.	4r	.	4r	.	4r	.	4r	4r
.	.	.	.	.	.	.	16gg\	.	.	.	.	.	.	.	.	.	.	.	.	.	.	.	.	.
.	.	.	.	.	.	.	16aa\	.	.	.	.	.	.	.	.	.	.	.	.	.	.	.	.	.
.	.	.	.	.	.	.	16gg\JJ	.	.	.	.	.	.	.	.	.	.	.	.	.	.	.	.	.
4d\	.	.	4A/	.	.	.	8ff\L	.	4d\	et	.	4d\	et	.	4a\	et	4ff\	et	4f\	.	4f\	.	4dd\	4ff\
.	.	.	.	.	.	.	8ff\J	.	.	.	.	.	.	.	.	.	.	.	.	.	.	.	.	.
=22	=22	=22	=22	=22	=22	=22	=22	=22	=22	=22	=22	=22	=22	=22	=22	=22	=22	=22	=22	=22	=22	=22	=22	=22
.	.	.	.	.	.	.	16qqgg/	.	.	.	.	.	.	.	.	.	.	.	.	.	.	.	.	.
!	!	!	!	!	!	!	!	!	!	!	!	!	!	!	!	!	!LO:SIC:v:l:s=ter-	!	!	!	!	!	!	!
4Bn\	6 5	.	4c/	.	4g/	.	8ff\L	.	4Bn\	ter-	.	4d\	ter-	.	4g\	ter-	4ff\	rer-	4g\	.	4g\	.	4dd\	4ff\
.	.	.	.	.	.	.	16ee\L	.	.	.	.	.	.	.	.	.	.	.	.	.	.	.	.	.
.	.	.	.	.	.	.	16ff\JJ	.	.	.	.	.	.	.	.	.	.	.	.	.	.	.	.	.
4c\	.	.	4c/	.	4g/	.	4ee\	.	4c\	-ra	.	4c\	-ra	.	4g\	-ra	4ee\	-ra	4c/	.	4g\	.	4cc\	4ee\
2r	.	.	2r	.	2r	.	16gg\LL	.	2r	.	.	2r	.	.	2r	.	2r	.	2r	.	2r	.	2r	2r
.	.	.	.	.	.	.	16ff\	.	.	.	.	.	.	.	.	.	.	.	.	.	.	.	.	.
.	.	.	.	.	.	.	16ee\	.	.	.	.	.	.	.	.	.	.	.	.	.	.	.	.	.
.	.	.	.	.	.	.	16dd\JJ	.	.	.	.	.	.	.	.	.	.	.	.	.	.	.	.	.
.	.	.	.	.	.	.	8cc\L	.	.	.	.	.	.	.	.	.	.	.	.	.	.	.	.	.
.	.	.	.	.	.	.	8cc\J	.	.	.	.	.	.	.	.	.	.	.	.	.	.	.	.	.
!	!	!	!	!	!LO:LB:g=original	!	!	!	!	!	!	!	!	!	!	!	!	!	!	!	!	!	!	!
=23	=23	=23	=23	=23	=23	=23	=23	=23	=23	=23	=23	=23	=23	=23	=23	=23	=23	=23	=23	=23	=23	=23	=23	=23
8C/L	8 3	.	8c\L	.	8e/L	.	16cc\LL	.	8C/L	glo-	.	2c\	glo-	.	8en\L	glo-	2cc\	glo-	2c/	.	2g\	.	2cc\	8ee\L
.	.	.	.	.	.	.	16cc\	.	.	.	.	.	.	.	.	.	.	.	.	.	.	.	.	.
8D/J	3	.	8d\J	.	8f/J	.	16cc\	.	8D/J	.	.	.	.	.	8f\J	.	.	.	.	.	.	.	.	8ff\J
.	.	.	.	.	.	.	16cc\JJ	.	.	.	.	.	.	.	.	.	.	.	.	.	.	.	.	.
*	*	*	*	*	*	*	*tremolo	*	*	*	*	*	*	*	*	*	*	*	*	*	*	*	*	*
8E\L	3_	.	8e\L	.	8g/L	.	16cc\LL	.	8E/L	.	.	.	.	.	8g\	-ri-	.	.	.	.	.	.	.	8gg\L
.	.	.	.	.	.	.	16cc\	.	.	.	.	.	.	.	.	.	.	.	.	.	.	.	.	.
16D\L	.	.	16d\L	.	16f/L	.	16cc\	.	16D/L	.	.	.	.	.	8e\	-a	.	.	.	.	.	.	.	16ff\L
16C\JJ	.	.	16c\JJ	.	16e/JJ	.	16cc\JJ	.	16C/JJ	.	.	.	.	.	.	.	.	.	.	.	.	.	.	16ee\JJ
8F\L	3_	.	8f\L	.	8a/L	.	16cc\LL	.	8F\L	-ri-	.	8c\L	-ri-	.	4a\	tu-	4cc\	-ri-	2f\	.	2a\	.	4cc\	8aa\L
.	.	.	.	.	.	.	16cc\	.	.	.	.	.	.	.	.	.	.	.	.	.	.	.	.	.
8G\J	.	.	8g\J	.	8g/	.	16cc\	.	8G\J	.	.	8B-\J	.	.	.	.	.	.	.	.	.	.	.	8gg\J
.	.	.	.	.	.	.	16cc\	.	.	.	.	.	.	.	.	.	.	.	.	.	.	.	.	.
8A\L	.	.	8a\L	.	8f/	.	16cc\	.	4A\	-a	.	4A\	-a	.	4a\	-a	4cc\	-a	.	.	.	.	4cc\	4ff\
.	.	.	.	.	.	.	16cc\	.	.	.	.	.	.	.	.	.	.	.	.	.	.	.	.	.
16G\L	.	.	16g\L	.	8a/J	.	16cc\	.	.	.	.	.	.	.	.	.	.	.	.	.	.	.	.	.
16F\JJ	.	.	16f\JJ	.	.	.	16cc\JJ	.	.	.	.	.	.	.	.	.	.	.	.	.	.	.	.	.
!	!	!	!LO:LB:g=original	!	!	!	!	!	!	!	!	!	!	!	!	!	!	!	!	!	!	!	!	!
=24	=24	=24	=24	=24	=24	=24	=24	=24	=24	=24	=24	=24	=24	=24	=24	=24	=24	=24	=24	=24	=24	=24	=24	=24
8D\L	8 #3	.	8d\L	.	8f#X/L	.	16dd\LL	.	8D\L	tu-	.	2d\	tu-	.	8f#X\L	glo-	2dd\	tu-	0r	.	0r	.	2dd\	8ff#X\L
.	.	.	.	.	.	.	16dd\	.	.	.	.	.	.	.	.	.	.	.	.	.	.	.	.	.
8E\J	3	.	8e\J	.	8g/J	.	16dd\	.	8E\J	.	.	.	.	.	8g\J	.	.	.	.	.	.	.	.	8gg\J
.	.	.	.	.	.	.	16dd\	.	.	.	.	.	.	.	.	.	.	.	.	.	.	.	.	.
!LO:LB:g=original	!	!	!	!	!	!	!	!	!	!	!	!	!	!	!	!	!	!	!	!	!	!	!	!
8F#X\L	3_	.	8f#X\L	.	8a/L	.	16dd\	.	8F#X\L	.	.	.	.	.	8a\	-ri-	.	.	.	.	.	.	.	8aa\L
.	.	.	.	.	.	.	16dd\	.	.	.	.	.	.	.	.	.	.	.	.	.	.	.	.	.
16E\L	.	.	16e\L	.	16g/L	.	16dd\	.	16E\L	.	.	.	.	.	8f#\	-a	.	.	.	.	.	.	.	16gg\L
16D\JJ	.	.	16d\JJ	.	16f#/JJ	.	16dd\JJ	.	16D\JJ	.	.	.	.	.	.	.	.	.	.	.	.	.	.	16ff#\JJ
!	!	!	!	!	!	!	!	!	!LO:LB:g=original	!	!	!	!	!	!LO:LB:g=original	!	!	!	!	!	!	!	!	!
8G\L	n	.	8g\L	.	8bn/L	.	16dd\LL	.	8G\L	.	.	8d\L	.	.	4bn\	tu-	2dd\	-a	.	.	.	.	4dd\	8bbn\L
.	.	.	.	.	.	.	16dd\	.	.	.	.	.	.	.	.	.	.	.	.	.	.	.	.	.
8A\J	.	.	8a\	.	8a/	.	16dd\	.	8A\J	.	.	8c\J	.	.	.	.	.	.	.	.	.	.	.	8aa\J
.	.	.	.	.	.	.	16dd\	.	.	.	.	.	.	.	.	.	.	.	.	.	.	.	.	.
!	!	!	!	!	!	!	!	!	!	!	!	!	!	!	!	!	!	!	!	!	!	!	!	!LO:TX:t=P:problem=dźwięk nieczytelny
8Bn\L	6_	.	8bn\	.	8g/	.	16dd\	.	4Bn\	-a	.	4Bn\	-a	.	4g\	-a	.	.	.	.	.	.	4dd\	4gg\yy
.	.	.	.	.	.	.	16dd\	.	.	.	.	.	.	.	.	.	.	.	.	.	.	.	.	.
16A\L	.	.	8g\J	.	8b/J	.	16dd\	.	.	.	.	.	.	.	.	.	.	.	.	.	.	.	.	.
16G\JJ	.	.	.	.	.	.	16dd\JJ	.	.	.	.	.	.	.	.	.	.	.	.	.	.	.	.	.
*	*	*	*	*	*	*	*Xtremolo	*	*	*	*	*	*	*	*	*	*	*	*	*	*	*	*	*
!	!	!	!	!	!	!	!LO:LB:g=original	!	!	!	!	!	!	!	!	!	!	!	!	!	!	!	!	!LO:LB:g=original
=25	=25	=25	=25	=25	=25	=25	=25	=25	=25	=25	=25	=25	=25	=25	=25	=25	=25	=25	=25	=25	=25	=25	=25	=25
*	*	*	*	*	*	*	*	*	*	*	*	*	*	*	*	*ij	*	*	*	*	*	*	*	*
8E\L	#	.	8e\L	.	8g#X/L	.	16een\LL	.	8E\L	glo-	.	2e\	Ple-	.	8g#X\L	glo-	2een\	Ple-	.	.	.	.	2ee\	8gg#X\L
.	.	.	.	.	.	.	16ee\	.	.	.	.	.	.	.	.	.	.	.	.	.	.	.	.	.
!LO:SIC:v:s=8F#\J	!	!	!	!	!	!	!	!	!LO:SIC:v:s=8F#\J	!	!	!	!	!	!	!	!	!	!	!	!	!	!	!
8F\J	3_	.	8f#X\J	.	8a/J	.	16ee\	.	8F\J	.	.	.	.	.	8a\J	.	.	.	.	.	.	.	.	8aa\J
.	.	.	.	.	.	.	16ee\JJ	.	.	.	.	.	.	.	.	.	.	.	.	.	.	.	.	.
*	*	*	*	*	*	*	*tremolo	*	*	*	*	*	*	*	*	*	*	*	*	*	*	*	*	*
!	!	!	!	!	!	!	!	!	!	!	!	!	!	!	!LO:SIC:v:s=8bn\	!	!	!	!	!	!	!	!	!LO:SIC:v:s=8bbn\L
8G#X\L	.	.	8g#X\L	.	8bn/L	.	16ee\LL	.	8G#X\L	.	.	.	.	.	8b-\	-ri-	.	.	.	.	.	.	.	8bb-\L
.	.	.	.	.	.	.	16ee\	.	.	.	.	.	.	.	.	.	.	.	.	.	.	.	.	.
!LO:SIC:v:s=16F#\L	!	!	!	!	!	!	!	!	!LO:SIC:v:s=16F#\L	!	!	!	!	!	!	!	!	!	!	!	!	!	!	!
16F\L	.	.	16f#\L	.	16a/L	.	16ee\	.	16F\L	.	.	.	.	.	8g#X\	-a	.	.	.	.	.	.	.	16aa\L
16E\JJ	.	.	16e\JJ	.	16g#/JJ	.	16ee\JJ	.	16E\JJ	.	.	.	.	.	.	.	.	.	.	.	.	.	.	16gg#\JJ
8A\L	5	.	8a\L	.	8cc/L	.	16ee\LL	.	8A\L	.	.	8e\L	.	.	4cc\	tu-	4ee\	-ni	.	.	.	.	4ee\	8ccc\L
.	.	.	.	.	.	.	16ee\	.	.	.	.	.	.	.	.	.	.	.	.	.	.	.	.	.
!LO:SIC:v:s=8Bn\J	!	!	!LO:SIC:v:s=8bn\	!	!	!	!	!	!LO:SIC:v:s=8Bn\J	!	!	!	!	!	!	!	!	!	!	!	!	!	!	!LO:SIC:v:s=8bb\J
8B-\J	3_	.	8b-\	.	8b/	.	16ee\	.	8B-\J	.	.	8d\J	.	.	.	.	.	.	.	.	.	.	.	8bb-\J
.	.	.	.	.	.	.	16ee\	.	.	.	.	.	.	.	.	.	.	.	.	.	.	.	.	.
8c\L	.	.	8cc\	.	8a/	.	16ee\	.	4c\	.	.	4c\	-ni	.	4a\	-a	4ee\	s(un)t	.	.	.	.	4ee\	4aa\
*	*	*	*	*	*	*	*	*	*	*	*	*	*	*	*	*Xij	*	*	*	*	*	*	*	*
.	.	.	.	.	.	.	16ee\	.	.	.	.	.	.	.	.	.	.	.	.	.	.	.	.	.
!LO:SIC:v:s=16Bn\L	!	!	!	!	!	!	!	!	!	!	!	!	!	!	!	!	!	!	!	!	!	!	!	!
16B-\L	.	.	8a\J	.	8cc/J	.	16ee\	.	.	.	.	.	.	.	.	.	.	.	.	.	.	.	.	.
16A\JJ	.	.	.	.	.	.	16ee\JJ	.	.	.	.	.	.	.	.	.	.	.	.	.	.	.	.	.
*	*	*	*	*	*	*	*Xtremolo	*	*	*	*	*	*	*	*	*	*	*	*	*	*	*	*	*
!	!	!	!	!	!	!	!	!	!	!	!	!LO:LB:g=original	!	!	!	!	!LO:LB:g=original	!	!	!	!	!	!LO:LB:g=original	!
=26	=26	=26	=26	=26	=26	=26	=26	=26	=26	=26	=26	=26	=26	=26	=26	=26	=26	=26	=26	=26	=26	=26	=26	=26
8F\L	8 3	.	8f\L	.	8a/L	.	16ff\LL	.	8F\L	.	.	2f\	Sunt	.	8a\L	Ple-	2ff\	Cae-	2r	.	2r	.	1ff	8aa\L
.	5	.	.	.	.	.	16ff\	.	.	.	.	.	.	.	.	.	.	.	.	.	.	.	.	.
!	!	!	!	!	!	!	!	!	!	!	!	!	!	!	!LO:SIC:v:s=8bn\J	!	!	!	!	!	!	!	!	!
8G\J	3	.	8g\J	.	8bn/J	.	16ff\	.	8G\J	.	.	.	.	.	8b-\J	.	.	.	.	.	.	.	.	8bbn\J
.	.	.	.	.	.	.	16ff\JJ	.	.	.	.	.	.	.	.	.	.	.	.	.	.	.	.	.
*	*	*	*	*	*	*	*tremolo	*	*	*	*	*	*	*	*	*	*	*	*	*	*	*	*	*
8A\L	.	.	8a\L	.	8cc/L	.	16ff\LL	.	8A\L	.	.	.	.	.	8cc\	-ni	.	.	.	.	.	.	.	8ccc\L
.	.	.	.	.	.	.	16ff\	.	.	.	.	.	.	.	.	.	.	.	.	.	.	.	.	.
16G\L	.	.	16g\L	.	16b/L	.	16ff\	.	16G\L	.	.	.	.	.	8a\	s(un)t	.	.	.	.	.	.	.	16bb\L
16F\JJ	.	.	16f\JJ	.	16a/JJ	.	16ff\JJ	.	16F\JJ	.	.	.	.	.	.	.	.	.	.	.	.	.	.	16aa\JJ
8G\L	7 5	.	8g\L	.	8b\L	.	16ff\LL	.	8G\L	.	.	2d\	.	.	8bn\L	Cae-	4ff\	-li	2g\	.	2g\	.	.	8bbn\L
.	.	.	.	.	.	.	16ff\	.	.	.	.	.	.	.	.	.	.	.	.	.	.	.	.	.
8A\J	.	.	8a\J	.	8cc\J	.	16ff\	.	8A\J	.	.	.	.	.	8cc\J	.	.	.	.	.	.	.	.	8ccc\J
.	.	.	.	.	.	.	16ff\	.	.	.	.	.	.	.	.	.	.	.	.	.	.	.	.	.
8Bn\L	.	.	8bn\L	.	8dd\L	.	16ff\	.	8Bn\L	-ri-	.	.	.	.	8dd,<\	-li	4ff\	et	.	.	.	.	.	8ddd\L
.	.	.	.	.	.	.	16ff\	.	.	.	.	.	.	.	.	.	.	.	.	.	.	.	.	.
16A\L	.	.	16a\L	.	16cc\L	.	16ff\	.	16A\L	-a	.	.	.	.	8b\	et	.	.	.	.	.	.	.	16ccc\L
16G\JJ	.	.	16g\JJ	.	16b\JJ	.	16ff\JJ	.	16G\JJ	.	.	.	.	.	.	.	.	.	.	.	.	.	.	16bb\JJ
*	*	*	*	*	*	*	*Xtremolo	*	*	*	*	*	*	*	*	*	*	*	*	*	*	*	*	*
=27	=27	=27	=27	=27	=27	=27	=27	=27	=27	=27	=27	=27	=27	=27	=27	=27	=27	=27	=27	=27	=27	=27	=27	=27
8C/L	3	.	8c\L	.	4cc\	.	8ee\L	.	4c\	tu-	.	8c\L	Cae-	.	4g\	ter-	8ee\L	ter-	4c/	.	4g\	.	8ee\L	4ccc\
8D/J	.	.	8d\J	.	.	.	8ff\J	.	.	.	.	8d\J	.	.	.	.	8ff\J	.	.	.	.	.	8ff\J	.
4E\	6 5	.	4.e\	.	8cc\L	.	4.gg\	.	4E\	-a	.	2e\	.	.	8cc\L	-ra	2gg\	.	4c/	.	4g\	.	2gg\	8ccc\L
.	.	.	.	.	8b-\J	.	.	.	.	.	.	.	.	.	8b-\J	.	.	.	.	.	.	.	.	8bb-\J
8F\L	9	.	.	.	8a/L	.	.	.	8F\L	glo-	.	.	.	.	8a\L	glo-	.	.	4f\	.	4a\	.	.	8aa\L
8G\J	.	.	16f\LL	.	8b-/J	.	16aa\LL	.	8G\J	.	.	.	.	.	8b-\J	.	.	.	.	.	.	.	.	8bb-\J
.	.	.	16e\JJ	.	.	.	16gg\JJ	.	.	.	.	.	.	.	.	.	.	.	.	.	.	.	.	.
4A\	6	.	8d\L	.	[4cc\	.	8ff\L	.	4A\	.	.	8d\L	-li	.	[y4cc\	.	8ff\L	ra	4r	.	4r	.	8ff\L	4ccc\
.	5	.	8c\J	.	.	.	8ee\J	.	.	.	.	8c\J	.	.	.	.	8ee\J	.	.	.	.	.	8ee\J	.
!LO:PB:g=original	!	!	!LO:LB:g=original	!	!	!	!	!	!	!	!	!	!	!	!	!	!	!	!	!	!	!	!	!
=28	=28	=28	=28	=28	=28	=28	=28	=28	=28	=28	=28	=28	=28	=28	=28	=28	=28	=28	=28	=28	=28	=28	=28	=28
!LO:TX:t=P:problem=mixed beam	!	!	!	!	!	!	!	!	!	!	!	!	!	!	!LO:N:xstem:cue	!	!	!	!	!	!	!	!	!
8Bn\L	9 3	.	8Bn/L	.	8cc\L]	.	8dd\L	.	8Bn\L	.	.	8Bn\L	et	.	8cc\]	.	8dd\L	glo-	0r	.	0r	.	8dd\L	4ccc\
8c\	.	.	8c/J	.	16dd\L	.	8ee\J	.	8c\J	.	.	8c\J	.	.	16dd\LL	.	8ee\J	.	.	.	.	.	8ee\J	.
.	.	.	.	.	16cc\JJ	.	.	.	.	.	.	.	.	.	16cc\JJ	.	.	.	.	.	.	.	.	.
!	!	!	!	!	!LO:LB:g=original	!	!	!	!	!	!	!	!	!	!LO:SIC:v:s=8bn\	!	!	!	!	!	!	!	!	!LO:SIC:v:s=8bbn\L
8d\	6	.	4.d\	.	8bn/L	.	4.ff\	.	8d\	-ri-	.	2d\	.	.	8b-\	-ri-	2ff\	-[ri-	.	.	.	.	2ff\	8bb-\L
8D/J	5	.	.	.	8a/J	.	.	.	8D/	-a	.	.	.	.	8a\	-a	.	.	.	.	.	.	.	8aa\J
!	!	!	!	!	!	!	!	!	!LO:LB:g=original	!	!	!	!	!	!	!	!	!	!	!	!	!	!	!
8E\L	9	.	.	.	8g/L	.	.	.	8E\L	tu-	.	.	.	.	8g\L	tu-	.	.	.	.	.	.	.	8gg\L
8F\J	.	.	16e\LL	.	8a/J	.	16gg\LL	.	8F\J	.	.	.	.	.	8a\J	.	.	.	.	.	.	.	.	8aa\J
.	.	.	16d\JJ	.	.	.	16ff\JJ	.	.	.	.	.	.	.	.	.	.	.	.	.	.	.	.	.
!	!	!	!	!	!	!	!	!	!	!	!	!	!	!	!	!	!	!	!	!	!	!	!	!LO:SIC:v:s=4bbn\
4G\	6	.	8c/L	.	[y4b/	.	8ee\L	.	4G\	-a	.	8c\L	.	.	4bn\	-a	8ee\L	-a	.	.	.	.	8ee\L	4bb-\
.	5	.	8B/J	.	.	.	8dd\J	.	.	.	.	8B\J	.	.	.	.	8dd\J	.	.	.	.	.	8dd\J	.
!	!	!	!	!	!	!	!	!	!	!	!	!	!	!	!LO:LB:g=original	!	!	!	!	!	!	!	!	!
=29	=29	=29	=29	=29	=29	=29	=29	=29	=29	=29	=29	=29	=29	=29	=29	=29	=29	=29	=29	=29	=29	=29	=29	=29
!LO:TX:t=P:problem=mixed beam	!	!	!	!	!LO:N:xstem:cue	!	!	!	!	!	!	!	!	!	!LO:SIC:v:s=8bn\L	!	!	!	!	!	!	!	!	!LO:SIC:v:s=4bbn\
8A\L	9	.	8A/L	.	8bny\]	.	8cc\L	.	8A\L	glo-	.	8A\L	ter-	.	8b-\L	glo-	8cc\L	tu]-	.	.	.	.	8cc\L	4bb-\
!LO:SIC:v:s=8Bn\	!	!	!LO:SIC:v:s=8Bn/J	!	!	!	!	!	!	!	!	!LO:SIC:v:s=8Bn\J	!	!	!	!	!	!	!	!	!	!	!	!
8B-\	.	.	8B-/J	.	16cc\LL	.	8dd\J	.	8Bn\J	.	.	8B-\J	.	.	16cc\L	.	8dd\J	.	.	.	.	.	8dd\J	.
!	!	!	!	!	!	!	!	!	!	!	!	!	!	!	!LO:SIC:v:s=16bn\JJ	!	!	!	!	!	!	!	!	!
.	.	.	.	.	16bny\JJ	.	.	.	.	.	.	.	.	.	16b-\JJ	.	.	.	.	.	.	.	.	.
8c\	6	.	4.c\	.	8a/L	.	4.ee\	.	8c\	-ri-	.	2c\	.	.	8a\	-ri-	2ee\	.	.	.	.	.	2ee\	8aa\L
8C/J	5	.	.	.	8g/J	.	.	.	8C/	-a	.	.	.	.	8g\	-a	.	.	.	.	.	.	.	8gg\J
8D\L	9	.	.	.	8f/L	.	.	.	(8D\L	tu-	.	.	.	.	8f\L	tu-	.	.	.	.	.	.	.	8ff\L
8E\J	.	.	16d\LL	.	8g/J	.	16ff\LL	.	8E\J	.	.	.	.	.	8g\J	.	.	.	.	.	.	.	.	8gg\J
.	.	.	16c\JJ	.	.	.	16ee\JJ	.	.	.	.	.	.	.	.	.	.	.	.	.	.	.	.	.
!	!	!	!	!	!	!	!	!	!	!	!	!	!	!	!	!	!	!	!	!	!	!	!	!LO:TX:t=P:problem=dźwięk nieczytelny
4F\	6	.	8Bn/L	.	4a/	.	8dd\L	.	4F\)	.	.	4d\	.	.	4a\	.	8dd\L	.	.	.	.	.	8dd\L	4aa\yy
.	5	.	8An/J	.	.	.	8cc\J	.	.	.	.	.	.	.	.	.	8cc\J	.	.	.	.	.	8cc\J	.
!	!	!	!	!	!	!	!	!	!	!	!	!	!	!	!	!	!	!	!	!	!	!	!	!LO:LB:g=original
=30	=30	=30	=30	=30	=30	=30	=30	=30	=30	=30	=30	=30	=30	=30	=30	=30	=30	=30	=30	=30	=30	=30	=30	=30
*	*	*	*	*	*tremolo	*	*	*	*	*	*	*	*	*	*	*	*	*	*	*	*	*	*	*
8G\L	5	.	8G/L	.	16d/LL	.	16bn\LL	.	4G,<\	-a	.	4d\	.	.	4d,<\	-a	4bn\	-a	1r	.	1r	.	4bn\	2gg\
.	.	.	.	.	16d/	.	16b\	.	.	.	.	.	.	.	.	.	.	.	.	.	.	.	.	.
8G\	.	.	8G/	.	16d/	.	16b\	.	.	.	.	.	.	.	.	.	.	.	.	.	.	.	.	.
.	.	.	.	.	16d/	.	16b\JJ	.	.	.	.	.	.	.	.	.	.	.	.	.	.	.	.	.
*	*	*	*	*	*	*	*tremolo	*	*	*	*	*	*	*	*	*	*	*	*	*	*	*	*	*
8Bn\	6	.	8Bn/	.	16d/	.	16gg\LL	.	4Bn\	Ple-	.	4d\	-ra	.	4g\	Ple-	4dd\	Ple-	.	.	.	.	4dd\	.
.	.	.	.	.	16d/	.	16gg\	.	.	.	.	.	.	.	.	.	.	.	.	.	.	.	.	.
8B\J	.	.	8B/J	.	16d/	.	16gg\	.	.	.	.	.	.	.	.	.	.	.	.	.	.	.	.	.
.	.	.	.	.	16d/JJ	.	16gg\JJ	.	.	.	.	.	.	.	.	.	.	.	.	.	.	.	.	.
!	!	!	!	!	!	!	!	!	!	!	!	!LO:SIC:v:s=4F#/	!	!	!	!	!	!	!	!	!	!	!	!
8c\L	#4 2	.	8A/L	.	16ddLL 16d/	.	16ff#X\LL	.	4c\	-ni	.	4Fn/	Ple-	.	4a\	-ni	4dd\	-ni	.	.	.	.	4dd\	4ff#X\
.	.	.	.	.	16dd 16d/	.	16ff#\	.	.	.	.	.	.	.	.	.	.	.	.	.	.	.	.	.
8c\	.	.	8A/	.	16dd 16d/	.	16ff#\	.	.	.	.	.	.	.	.	.	.	.	.	.	.	.	.	.
.	.	.	.	.	16dd 16d/	.	16ff#\JJ	.	.	.	.	.	.	.	.	.	.	.	.	.	.	.	.	.
8B\	6	.	8B/	.	16dd 16d/	.	16gg\LL	.	4B\	s(un)t	.	4G/	-ni	.	4g\	s(un)t	4dd\	s(un)t	.	.	.	.	4dd\	4gg\
.	.	.	.	.	16dd 16d/	.	16gg\	.	.	.	.	.	.	.	.	.	.	.	.	.	.	.	.	.
8B\J	.	.	8B/J	.	16dd 16d/	.	16gg\	.	.	.	.	.	.	.	.	.	.	.	.	.	.	.	.	.
.	.	.	.	.	16ddJJ 16d/	.	16gg\JJ	.	.	.	.	.	.	.	.	.	.	.	.	.	.	.	.	.
*	*	*	*	*	*	*	*Xtremolo	*	*	*	*	*	*	*	*	*	*	*	*	*	*	*	*	*
!	!	!	!	!	!	!	!LO:LB:g=original	!	!	!	!	!	!	!	!	!	!	!	!	!	!LO:LB:g=original	!	!	!
=31	=31	=31	=31	=31	=31	=31	=31	=31	=31	=31	=31	=31	=31	=31	=31	=31	=31	=31	=31	=31	=31	=31	=31	=31
!	!	!	!	!	!	!	!	!	!	!	!	!	!	!	!	!	!	!	!	!	!	!	!	!LO:SIC:v:s=4ff#\
8c\L	4 2	.	8A/L	.	16ddLL 16d/	.	16ff#X\LL	.	4c\	Cae-	.	4A/	s(un)t	.	4f#X\	Cae-	4dd\	Cae-	2r	.	2r	.	2dd\	4ff\
.	.	.	.	.	16dd 16d/	.	16ff#\	.	.	.	.	.	.	.	.	.	.	.	.	.	.	.	.	.
8c\	.	.	8A/	.	16dd 16d/	.	16ff#\	.	.	.	.	.	.	.	.	.	.	.	.	.	.	.	.	.
.	.	.	.	.	16dd 16d/	.	16ff#\JJ	.	.	.	.	.	.	.	.	.	.	.	.	.	.	.	.	.
*	*	*	*	*	*	*	*tremolo	*	*	*	*	*	*	*	*	*	*	*	*	*	*	*	*	*
!LO:SIC:v:s=8Bn\	!	!	!LO:SIC:v:s=8Bn/	!	!	!	!	!	!	!	!	!	!	!	!	!	!	!	!	!	!	!	!	!
8B-\	6	.	8B-/	.	16dd 16d/	.	16gg\LL	.	4Bn\	-li	.	4G/	Cae-	.	4g\	-li	8dd\	-li	.	.	.	.	.	4gg\
.	.	.	.	.	16dd 16d/	.	16gg\	.	.	.	.	.	.	.	.	.	.	.	.	.	.	.	.	.
!LO:SIC:v:s=8B\J	!	!	!LO:SIC:v:s=8Bn/J	!	!	!	!	!	!	!	!	!	!	!	!	!	!	!	!	!	!	!	!	!
8B-\J	.	.	8B-/J	.	16dd 16d/	.	16gg\	.	.	.	.	.	.	.	.	.	8dd\	et	.	.	.	.	.	.
.	.	.	.	.	16ddJJ 16d/	.	16gg\JJ	.	.	.	.	.	.	.	.	.	.	.	.	.	.	.	.	.
*	*	*	*tremolo	*	*	*	*	*	*	*	*	*	*	*	*	*	*	*	*	*	*	*	*	*
!LO:SIC:v:s=8B\L	!	!	!	!	!	!	!	!	!	!	!	!	!	!	!	!	!LO:LB:g=original	!	!	!	!	!	!	!
8B-\L	6 5	.	8g\L	.	16ddLL 16d/	.	16ffn\LL	.	8B\L	et	.	2d\	.	.	2g\	et	2ff\	ter-	4g\	.	4g\	.	2dd\	2ffn\
.	.	.	.	.	16dd 16d/	.	16ff\	.	.	.	.	.	.	.	.	.	.	.	.	.	.	.	.	.
8d\	.	.	8g\	.	16dd 16d/	.	16ff\	.	8d\	.	.	.	.	.	.	.	.	.	.	.	.	.	.	.
.	.	.	.	.	16dd 16d/	.	16ff\	.	.	.	.	.	.	.	.	.	.	.	.	.	.	.	.	.
8G\	.	.	8g\	.	16dd 16d/	.	16ff\	.	8G\	.	.	.	.	.	.	.	.	.	8g\L	.	8g\L	.	.	.
.	.	.	.	.	16dd 16d/	.	16ff\	.	.	.	.	.	.	.	.	.	.	.	.	.	.	.	.	.
!LO:SIC:v:s=8B\J	!	!	!	!	!	!	!	!	!	!	!	!	!	!	!	!	!	!	!	!	!	!	!	!
8B-\J	.	.	8g\J	.	16dd 16d/	.	16ff\	.	8B\J	.	.	.	.	.	.	.	.	.	8g\J	.	8g\J	.	.	.
.	.	.	.	.	16ddJJ 16d/	.	16ff\JJ	.	.	.	.	.	.	.	.	.	.	.	.	.	.	.	.	.
*	*	*	*	*	*	*	*Xtremolo	*	*	*	*	*	*	*	*	*	*	*	*	*	*	*	*	*
!	!	!	!	!	!	!	!	!	!	!	!	!	!	!	!	!	!	!	!LO:LB:g=original	!	!	!	!	!
=32	=32	=32	=32	=32	=32	=32	=32	=32	=32	=32	=32	=32	=32	=32	=32	=32	=32	=32	=32	=32	=32	=32	=32	=32
!LO:TX:t=P:problem=mixed beam	!	!	!	!	!	!	!	!	!	!	!	!	!	!	!	!	!	!	!	!	!	!	!	!
8c\L	.	.	8g\L	.	16cc\LL	.	16ee\LL	.	4c\	ter-	.	4c\	-li	.	4g\	ter-	4ee\	-ra	4c/	.	4g\	.	4ee\	4ee\
.	.	.	.	.	16cc\	.	16ee\	.	.	.	.	.	.	.	.	.	.	.	.	.	.	.	.	.
8c\	.	.	8g\	.	16cc\	.	16ee\	.	.	.	.	.	.	.	.	.	.	.	.	.	.	.	.	.
.	.	.	.	.	16cc\	.	16ee\JJ	.	.	.	.	.	.	.	.	.	.	.	.	.	.	.	.	.
8C/	.	.	8g\	.	16cc\	.	16ccc\LL	.	4C/	-ra	.	4c\	et	.	4g\	-ra	4cc\	glo-	4c/	.	4g\	.	4ee\	4ccc\
.	.	.	.	.	16cc\	.	16ccc\	.	.	.	.	.	.	.	.	.	.	.	.	.	.	.	.	.
8C/J	.	.	8g\J	.	16cc\	.	16ccc\	.	.	.	.	.	.	.	.	.	.	.	.	.	.	.	.	.
.	.	.	.	.	16cc\JJ	.	16ccc\JJ	.	.	.	.	.	.	.	.	.	.	.	.	.	.	.	.	.
*tremolo	*	*	*	*	*	*	*	*	*	*	*	*	*	*	*	*	*	*	*	*	*	*	*	*
8E\L	6 -5	.	8g\L	.	16cc\LL	.	8bb-\	.	4E\	glo-	.	2G/	ter-	.	2b-X\	glo-	4cc\	-ri-	2c/	.	2g\	.	2cc\	2bb-X\
.	.	.	.	.	16cc\	.	.	.	.	.	.	.	.	.	.	.	.	.	.	.	.	.	.	.
8E\	.	.	8g\	.	16cc\	.	4bb-\	.	.	.	.	.	.	.	.	.	.	.	.	.	.	.	.	.
.	.	.	.	.	16cc\	.	.	.	.	.	.	.	.	.	.	.	.	.	.	.	.	.	.	.
8E\	.	.	8g\	.	16cc\	.	.	.	8E\	-ri-	.	.	.	.	.	.	4cc\	-a	.	.	.	.	.	.
.	.	.	.	.	16cc\	.	.	.	.	.	.	.	.	.	.	.	.	.	.	.	.	.	.	.
8E\J	.	.	8g\J	.	16cc\	.	8bb-\	.	8E\	-a	.	.	.	.	.	.	.	.	.	.	.	.	.	.
.	.	.	.	.	16cc\JJ	.	.	.	.	.	.	.	.	.	.	.	.	.	.	.	.	.	.	.
*Xtremolo	*	*	*Xtremolo	*	*Xtremolo	*	*	*	*	*	*	*	*	*	*	*	*	*	*	*	*	*	*	*
!LO:LB:g=original	!	!	!	!	!	!	!	!	!LO:LB:g=original	!	!	!	!	!	!	!	!	!	!	!	!	!	!LO:LB:g=original	!
=33	=33	=33	=33	=33	=33	=33	=33	=33	=33	=33	=33	=33	=33	=33	=33	=33	=33	=33	=33	=33	=33	=33	=33	=33
8F\L	3	.	8f\L	.	4cc\	.	8aa\L	.	8F\L	tu-	.	8A\L	.	.	8a\L	.	4cc\	tu-	8f\L	.	8a\L	.	4cc\	8aa\L
8G\J	3	.	8g\J	.	.	.	8bb-\J	.	8G\J	.	.	8B-\J	.	.	8b-\J	.	.	.	8g\J	.	8b-\J	.	.	8bb-\J
4A\	6	.	4.a\	.	8ff\L	.	4.ccc\	.	4A\	-a	.	4c\	-ra	.	2cc\	.	8ff\L	.	4a\	.	4cc\	.	8ff\L	2ccc\
.	5	.	.	.	8ee\J	.	.	.	.	.	.	.	.	.	.	.	8ee\J	.	.	.	.	.	8ee\J	.
*	*	*	*	*	*	*	*	*	*	*ij	*	*	*	*	*	*	*	*	*	*	*	*	*	*
!LO:TX:t=P:problem=mixed beam	!	!	!	!	!	!	!	!	!	!	!	!	!	!	!	!	!	!	!	!	!	!	!	!
8B-\L	9	.	.	.	8dd\L	.	.	.	8B-X\L	glo-	.	4d\	glo-	.	.	.	8dd\L	.	4r	.	4r	.	8dd\L	.
8c\	.	.	16b-X\LL	.	8ee\J	.	(16ddd\LL	.	8c\J	.	.	.	.	.	.	.	8ee\J	.	.	.	.	.	8ee\J	.
.	.	.	16a\JJ	.	.	.	16ccc\J)	.	.	.	.	.	.	.	.	.	.	.	.	.	.	.	.	.
!	!	!	!LO:LB:g=original	!	!	!	!	!	!	!	!	!	!	!	!	!	!	!	!	!	!	!	!	!
8d\	6	.	8g\L	.	[y4ff\	.	8bb-\	.	8d\	-ri-	.	4B-\	.	.	8b-\L	.	[4ff\	-a	8g\L	.	8b-\L	.	[4ff\	8bb-\L
8D/J	5	.	8f\J	.	.	.	8aa\J	.	8D/	-a	.	.	.	.	8a\J	.	.	.	8f\J	.	8a\J	.	.	8aa\J
=34	=34	=34	=34	=34	=34	=34	=34	=34	=34	=34	=34	=34	=34	=34	=34	=34	=34	=34	=34	=34	=34	=34	=34	=34
!	!	!	!	!	!LO:N:xstem:cue	!	!	!	!	!	!	!	!	!	!	!	!	!	!	!	!	!	!	!
8E\L	9	.	8e\L	.	8ff\]	.	8gg\L	.	8E\L	tu-	.	8G/L	.	.	8g\L	.	4ff,<\]	.	8g\L	.	8g\L	.	4ff\]	8gg\L
8F\J	.	.	8f\J	.	16gg\LL	.	8aa\J	.	8F\J	.	.	8A/J	.	.	8a\J	.	.	.	8f\J	.	8a\J	.	.	8aa\J
.	.	.	.	.	16ff\JJ	.	.	.	.	.	.	.	.	.	.	.	.	.	.	.	.	.	.	.
4G\	6	.	4.g\	.	8ee\L	.	4.bb-\	.	4G,<\	-a	.	4B-\	.	.	2b-\	.	8ee\L	o-	2g\	.	2b-\	.	8ee\L	2bb-\
.	5	.	.	.	8dd\J	.	.	.	.	.	.	.	.	.	.	.	8dd\J	.	.	.	.	.	8dd\J	.
!LO:TX:t=P:problem=mixed beam	!	!	!	!	!	!	!	!	!	!	!	!	!	!	!	!	!	!	!	!	!	!	!	!
8A\L	9	.	.	.	8cc\L	.	.	.	8A\L	glo-	.	4c\	.	.	.	.	8cc\L	-ſan-	.	.	.	.	8cc\L	.
8B-\	.	.	16a\LL	.	8dd\J	.	16ccc\LL	.	8B-\J	.	.	.	.	.	.	.	8dd\J	.	.	.	.	.	8dd\J	.
.	.	.	16g\JJ	.	.	.	16bb-\JJ	.	.	.	.	.	.	.	.	.	.	.	.	.	.	.	.	.
8c\	6	.	8f\L	.	[y4ee\	.	8aa\L	.	8c\	-ri-	.	4A\	.	.	8a\L	.	4ee\	.	8f/L	.	8a\L	.	[4ee\	8aa\L
8C/J	5	.	8e\J	.	.	.	8gg\J	.	8C/	-a	.	.	.	.	8g\J	.	.	.	8c/J	.	8g\J	.	.	8gg\J
!	!	!	!	!	!	!	!	!	!	!	!	!LO:LB:g=original	!	!	!	!	!	!	!	!	!	!	!	!
=35	=35	=35	=35	=35	=35	=35	=35	=35	=35	=35	=35	=35	=35	=35	=35	=35	=35	=35	=35	=35	=35	=35	=35	=35
!	!	!	!	!	!LO:N:xstem:cue	!	!	!	!	!	!	!	!	!	!	!	!	!	!	!	!	!	!	!
8D\L	9	.	8d\L	.	8ee\]	.	8ff\L	.	8D\L	tu-	.	8d\L	.	.	8f\L	.	4ee\	.	8f\L	.	8f\L	.	4ee\]	8ff\L
8E\J	.	.	8e\J	.	16ff\LL	.	8gg\J	.	8E\J	.	.	8e\J	.	.	8g\J	.	.	.	8g\J	.	8g\J	.	.	8gg\J
.	.	.	.	.	16ee\JJ	.	.	.	.	.	.	.	.	.	.	.	.	.	.	.	.	.	.	.
4F\	6	.	4.f\	.	8dd\L	.	4.aa\	.	4F,<\	-a	.	2f\	.	.	2a\	.	8dd\L	.	4f\	.	4a\	.	8dd\L	2aa\
.	5	.	.	.	8cc\J	.	.	.	.	.	.	.	.	.	.	.	8cc\J	.	.	.	.	.	8cc\J	.
!LO:TX:t=P:problem=mixed beam	!	!	!	!	!	!	!	!	!	!	!	!	!	!	!	!	!	!	!	!	!	!	!	!
8G\L	9	.	.	.	8bn\L	.	.	.	8G\L	glo-	.	.	.	.	.	.	8b-X\L	.	2r	.	2r	.	8b-X\L	.
8A\	.	.	16g\LL	.	8cc\J	.	16bb-\LL	.	8A\J	.	.	.	.	.	.	.	8cc\J	.	.	.	.	.	8cc\J	.
.	.	.	16f\JJ	.	.	.	16aa\JJ	.	.	.	.	.	.	.	.	.	.	.	.	.	.	.	.	.
8B-\	6	.	8e\L	.	4dd\	.	8gg\L	.	8B-\	-ri-	.	8e\L	-ri-	.	8g\	ri-	4dd\	-na	.	.	.	.	4dd\	8gg\L
!	!	!	!	!	!	!	!	!	!	!	!	!	!	!	!LO:TX:t=P:problem=dźwięk nieczytelny	!	!	!	!	!	!	!	!	!
8BB-/J	5	.	8d\J	.	.	.	8ff\J	.	8BB-/	-a	.	8d\J	.	.	8a\yy	-a	.	.	.	.	.	.	.	8ff\J
!	!	!	!	!	!LO:LB:g=original	!	!	!	!	!	!	!	!	!	!LO:LB:g=original	!	!LO:LB:g=original	!	!	!	!	!	!	!
=36	=36	=36	=36	=36	=36	=36	=36	=36	=36	=36	=36	=36	=36	=36	=36	=36	=36	=36	=36	=36	=36	=36	=36	=36
*	*	*	*	*	*tremolo	*	*	*	*	*	*	*	*	*	*	*	*	*	*	*	*	*	*	*
8C/L	7 5	.	8c\L	.	16b-/LL	.	16ee\LL	.	4C/	tu-	.	(4c\	-a	.	4b-\	glo-	4ee\	glo-	4g\	.	4b-\	.	4b-/	4ee\
.	.	.	.	.	16b-/	.	16ee\	.	.	.	.	.	.	.	.	.	.	.	.	.	.	.	.	.
8C/	.	.	8c\	.	16b-/	.	16ee\	.	.	.	.	.	.	.	.	.	.	.	.	.	.	.	.	.
.	.	.	.	.	16b-/JJ	.	16ee\JJ	.	.	.	.	.	.	.	.	.	.	.	.	.	.	.	.	.
!	!	!	!	!	!	!	!LO:LB:g=original	!	!	!	!	!	!	!	!	!	!	!	!	!	!	!	!	!
8D/	5 3	.	8d\	.	16a/LL	.	16ffn\LL	.	8D/	.	.	4A\)	.	.	8a\	-ri-	8ff\	-ri-	4f\	.	4a\	.	4a/	2ff\
.	.	.	.	.	16a/	.	16ff\	.	.	.	.	.	.	.	.	.	.	.	.	.	.	.	.	.
8D/J	.	.	8d\J	.	16a/	.	16ff\	.	8D/	-a	.	.	.	.	8a\	-a	8ff\	-a	.	.	.	.	.	.
*	*	*	*	*	*	*	*	*	*	*Xij	*	*	*	*	*	*	*	*	*	*	*	*	*	*
.	.	.	.	.	16a/JJ	.	16ff\JJ	.	.	.	.	.	.	.	.	.	.	.	.	.	.	.	.	.
!	!	!	!	!	!	!	!	!	!LO:LB:g=original	!	!	!	!	!	!	!	!	!	!	!	!	!	!	!
8BB-/L	6 5	.	8d\L	.	16g/LL	.	16ff\LL	.	(4BB-/	tu-	.	(4d\	tu-	.	2g\	tu-	(4ff\	tu-	4f\	.	2g\	.	2g/	.
.	.	.	.	.	16g/	.	16ff\	.	.	.	.	.	.	.	.	.	.	.	.	.	.	.	.	.
8BB-/	.	.	8d\	.	16g/	.	16ff\	.	.	.	.	.	.	.	.	.	.	.	.	.	.	.	.	.
.	.	.	.	.	16g/	.	16ff\JJ	.	.	.	.	.	.	.	.	.	.	.	.	.	.	.	.	.
*	*	*	*	*	*	*	*tremolo	*	*	*	*	*	*	*	*	*	*	*	*	*	*	*	*	*
8C/	.	.	8c\	.	16g/	.	16ee\LL	.	4C/)	.	.	4c\)	.	.	.	.	4ee\)	.	4c/	.	.	.	.	4ee\
.	.	.	.	.	16g/	.	16ee\	.	.	.	.	.	.	.	.	.	.	.	.	.	.	.	.	.
8C/J	.	.	8c\J	.	16g/	.	16ee\	.	.	.	.	.	.	.	.	.	.	.	.	.	.	.	.	.
.	.	.	.	.	16g/JJ	.	16ee\JJ	.	.	.	.	.	.	.	.	.	.	.	.	.	.	.	.	.
*	*	*	*	*	*Xtremolo	*	*Xtremolo	*	*	*	*	*	*	*	*	*	*	*	*	*	*	*	*	*
=37	=37	=37	=37	=37	=37	=37	=37	=37	=37	=37	=37	=37	=37	=37	=37	=37	=37	=37	=37	=37	=37	=37	=37	=37
8F\L	.	.	8f\L	.	8a\L	.	16ff\LL	.	8F\	a	.	4c\	-a	.	4f\	-a	4ff\	-a	4f\	.	4f\	.	4a/	1ff
.	.	.	.	.	.	.	16ff\	.	.	.	.	.	.	.	.	.	.	.	.	.	.	.	.	.
8A\	.	.	8f\	.	8cc\	.	16ff\	.	8A\L	O-	.	.	.	.	.	.	.	.	.	.	.	.	.	.
.	.	.	.	.	.	.	16ff\JJ	.	.	.	.	.	.	.	.	.	.	.	.	.	.	.	.	.
*	*	*	*	*	*	*	*tremolo	*	*	*	*	*	*	*	*	*	*	*	*	*	*	*	*	*
8c\	-3	.	8f\	.	8ee-X\	.	16ff\LL	.	8c\	.	.	4e-X\	o-	.	4f\	o-	4ff\	O-	4F/	.	4f\	.	4cc\	.
.	.	.	.	.	.	.	16ff\	.	.	.	.	.	.	.	.	.	.	.	.	.	.	.	.	.
8A\J	.	.	8f\J	.	8cc\J	.	16ff\	.	8A\J	.	.	.	.	.	.	.	.	.	.	.	.	.	.	.
.	.	.	.	.	.	.	16ff\JJ	.	.	.	.	.	.	.	.	.	.	.	.	.	.	.	.	.
*	*	*	*tremolo	*	*	*	*	*	*	*	*	*	*	*	*	*	*	*	*	*	*tremolo	*	*	*
8B-\L	.	.	8f\L	.	8dd\L	.	16ff\LL	.	8B-\L	-ſan-	.	4d\	-ſan-	.	4f\	-ſan-	4ff\	-ſan-	8F/L	.	8f\L	.	8dd\L	.
.	.	.	.	.	.	.	16ff\	.	.	.	.	.	.	.	.	.	.	.	.	.	.	.	.	.
8c\	.	.	8f\	.	8cc\J	.	16ff\	.	8c\J	.	.	.	.	.	.	.	.	.	8F/	.	8f\	.	8cc\J	.
.	.	.	.	.	.	.	16ff\	.	.	.	.	.	.	.	.	.	.	.	.	.	.	.	.	.
8d\	6	.	8f\	.	8b-X\L	.	16ff\	.	4d\	-na	.	4c\	-na	.	4f\	-na	4ff\	-na	8F/	.	8f\	.	4b-\	.
.	.	.	.	.	.	.	16ff\	.	.	.	.	.	.	.	.	.	.	.	.	.	.	.	.	.
8B-\J	.	.	8f\J	.	16cc\L	.	16ff\	.	.	.	.	.	.	.	.	.	.	.	8F/J	.	8f\J	.	.	.
.	.	.	.	.	16dd\JJ	.	16ff\JJ	.	.	.	.	.	.	.	.	.	.	.	.	.	.	.	.	.
*	*	*	*	*	*	*	*Xtremolo	*	*	*	*	*	*	*	*	*	*	*	*	*	*Xtremolo	*	*	*
!LO:LB:g=original	!	!	!	!	!	!	!	!	!	!	!	!	!	!	!	!	!	!	!	!	!LO:LB:g=original	!	!LO:LB:g=original	!LO:LB:g=original
=38	=38	=38	=38	=38	=38	=38	=38	=38	=38	=38	=38	=38	=38	=38	=38	=38	=38	=38	=38	=38	=38	=38	=38	=38
8F\L	-7 3	.	8f\L	.	8a\L	.	16ff\LL	.	8F\L	in	.	2e\	in	.	2f\	in	2ff\	in	4F/	.	4f\	.	8r	1ff
.	.	.	.	.	.	.	16ff\	.	.	.	.	.	.	.	.	.	.	.	.	.	.	.	.	.
8A\	.	.	8f\	.	8cc\	.	16ff\	.	8A\J	.	.	.	.	.	.	.	.	.	.	.	.	.	8cc\L	.
.	.	.	.	.	.	.	16ff\JJ	.	.	.	.	.	.	.	.	.	.	.	.	.	.	.	.	.
*	*	*	*	*	*	*	*tremolo	*	*	*	*	*	*	*	*	*	*	*	*	*	*	*	*	*
!	!	!	!	!	!LO:SIC:v:s=8ee-\	!	!	!	!	!	!	!	!	!	!	!	!	!	!	!	!	!	!	!
8c\	.	.	8f\	.	8ee\	.	16ff\LL	.	8c\L	ex-	.	.	.	.	.	.	.	.	4F/	.	4f\	.	8ee-X\	.
.	.	.	.	.	.	.	16ff\	.	.	.	.	.	.	.	.	.	.	.	.	.	.	.	.	.
8A\J	.	.	8f\J	.	8cc\J	.	16ff\	.	8A\J	.	.	.	.	.	.	.	.	.	.	.	.	.	8cc\J	.
.	.	.	.	.	.	.	16ff\JJ	.	.	.	.	.	.	.	.	.	.	.	.	.	.	.	.	.
*	*	*	*	*	*	*	*	*	*	*	*	*	*	*	*	*	*	*	*	*	*tremolo	*	*	*
8B-\L	.	.	8f\L	.	8dd\L	.	16ff\LL	.	8B-\L	-cel-	.	2d\	ex-	.	2f\	ex-	2ff\	ex-	8F/L	.	8f\L	.	8dd\L	.
.	.	.	.	.	.	.	16ff\	.	.	.	.	.	.	.	.	.	.	.	.	.	.	.	.	.
8c\	.	.	8f\	.	8cc\J	.	16ff\	.	8c\J	.	.	.	.	.	.	.	.	.	8F/	.	8f\	.	8cc\J	.
.	.	.	.	.	.	.	16ff\	.	.	.	.	.	.	.	.	.	.	.	.	.	.	.	.	.
8d\	.	.	8f\	.	8b-\L	.	16ff\	.	4d\	sis	.	.	.	.	.	.	.	.	8F/	.	8f\	.	4b-\	.
.	.	.	.	.	.	.	16ff\	.	.	.	.	.	.	.	.	.	.	.	.	.	.	.	.	.
8B-\J	.	.	8f\J	.	16cc\L	.	16ff\	.	.	.	.	.	.	.	.	.	.	.	8F/J	.	8f\J	.	.	.
.	.	.	.	.	16dd\JJ	.	16ff\JJ	.	.	.	.	.	.	.	.	.	.	.	.	.	.	.	.	.
*	*	*	*	*	*	*	*	*	*	*	*	*	*	*	*	*	*	*	*	*	*Xtremolo	*	*	*
!	!	!	!LO:LB:g=original	!	!	!	!	!	!	!	!	!	!	!	!	!	!	!	!LO:LB:g=original	!	!	!	!	!
=39	=39	=39	=39	=39	=39	=39	=39	=39	=39	=39	=39	=39	=39	=39	=39	=39	=39	=39	=39	=39	=39	=39	=39	=39
*	*	*	*	*	*	*	*^	*	*	*	*	*	*	*	*	*	*	*	*	*	*	*	*	*
*	*	*	*	*	*tremolo	*	*tremolo	*Xtremolo	*	*	*	*	*	*	*	*	*	*	*	*	*	*	*	*	*
8A\L	.	.	8f\L	.	16cc\LL	.	16ff/LL	16cc\LL	.	4A,<\	.	.	4c\	-cel-	.	2.f\	-cel-	2.ff\	-cel-	4F/	.	4f\	.	2.ff\	4ccc\
.	.	.	.	.	16cc\	.	16ff/	16cc\	.	.	.	.	.	.	.	.	.	.	.	.	.	.	.	.	.
8A\	.	.	8f\	.	16cc\	.	16ff/	16cc\	.	.	.	.	.	.	.	.	.	.	.	.	.	.	.	.	.
.	.	.	.	.	16cc\JJ	.	16ff/JJ	16cc\JJ	.	.	.	.	.	.	.	.	.	.	.	.	.	.	.	.	.
8B-\	.	.	8f\	.	16dd\LL	.	16ff/LL	16dd\LL	.	4B-\	O-	.	4d\	.	.	.	.	.	.	4F/	.	4f\	.	.	4ddd\
.	.	.	.	.	16dd\	.	16ff/	16dd\	.	.	.	.	.	.	.	.	.	.	.	.	.	.	.	.	.
8B-\J	.	.	8f\J	.	16dd\	.	16ff/	16dd\	.	.	.	.	.	.	.	.	.	.	.	.	.	.	.	.	.
.	.	.	.	.	16dd\JJ	.	16ff/JJ	16dd\JJ	.	.	.	.	.	.	.	.	.	.	.	.	.	.	.	.	.
*	*	*	*Xtremolo	*	*	*	*	*	*	*	*	*	*	*	*	*	*	*	*	*	*	*	*	*	*
8A\L	.	.	8f\L	.	16cc\LL	.	16ff/LL	16cc\LL	.	4A\	-ſan-	.	2c\	.	.	.	.	.	.	4f\	.	4f\	.	.	4ccc\
.	.	.	.	.	16cc\	.	16ff/	16cc\	.	.	.	.	.	.	.	.	.	.	.	.	.	.	.	.	.
8A\	.	.	8f\	.	16cc\	.	16ff/	16cc\	.	.	.	.	.	.	.	.	.	.	.	.	.	.	.	.	.
.	.	.	.	.	16cc\JJ	.	16ff/JJ	16cc\JJ	.	.	.	.	.	.	.	.	.	.	.	.	.	.	.	.	.
8G\	6\	.	8e\	.	16ee\LL	.	16bb-/LL	16cc\LL	.	4G\	-na	.	.	.	.	4b-\	.	4ee\	.	4g\	.	4b-\	.	4een\	4bb-\
.	.	.	.	.	16ee\	.	16bb-/	16cc\	.	.	.	.	.	.	.	.	.	.	.	.	.	.	.	.	.
8G\J	.	.	8e\J	.	16ee\	.	16bb-/	16cc\	.	.	.	.	.	.	.	.	.	.	.	.	.	.	.	.	.
.	.	.	.	.	16ee\JJ	.	16bb-/JJ	16cc\JJ	.	.	.	.	.	.	.	.	.	.	.	.	.	.	.	.	.
*	*	*	*	*	*	*	*v	*v	*	*	*	*	*	*	*	*	*	*	*	*	*	*	*	*	*
=40	=40	=40	=40	=40	=40	=40	=40	=40	=40	=40	=40	=40	=40	=40	=40	=40	=40	=40	=40	=40	=40	=40	=40	=40
8F\L	.	.	8f\L	.	16ff\LL	.	16aa\LL	.	4F\	in	.	4c\	-sis	.	2a\	.	4ff\	-sis	2.f\	.	2a\	.	2.ff\	2aa\
.	.	.	.	.	16ff\	.	16aa\	.	.	.	.	.	.	.	.	.	.	.	.	.	.	.	.	.
8F\	.	.	8f\	.	16ff\	.	16aa\	.	.	.	.	.	.	.	.	.	.	.	.	.	.	.	.	.
.	.	.	.	.	16ff\JJ	.	16aa\JJ	.	.	.	.	.	.	.	.	.	.	.	.	.	.	.	.	.
8D\	.	.	8d\	.	16a/LL	.	16ff\LL	.	4D/	ex-	.	4d\	.	.	.	.	8ff\	in	.	.	.	.	.	.
.	.	.	.	.	16a/	.	16ff\	.	.	.	.	.	.	.	.	.	.	.	.	.	.	.	.	.
8D\J	.	.	8d\J	.	16a/	.	16ff\	.	.	.	.	.	.	.	.	.	8ff\	ex-	.	.	.	.	.	.
.	.	.	.	.	16a/JJ	.	16ff\JJ	.	.	.	.	.	.	.	.	.	.	.	.	.	.	.	.	.
8BB-/L	6 5	.	8d\L	.	16g/LL	.	16ff\LL	.	4BB-/	-cel-	.	4d\	ex-	.	2g\	.	(4ff\	-cel-	.	.	2g\	.	.	2gg\
.	.	.	.	.	16g/	.	16ff\	.	.	.	.	.	.	.	.	.	.	.	.	.	.	.	.	.
8BB-/	.	.	8d\	.	16g/	.	16ff\	.	.	.	.	.	.	.	.	.	.	.	.	.	.	.	.	.
.	.	.	.	.	16g/	.	16ff\JJ	.	.	.	.	.	.	.	.	.	.	.	.	.	.	.	.	.
!	!	!	!	!	!	!	!LO:LB:g=original	!	!	!	!	!	!	!	!	!	!	!	!	!	!	!	!	!
8C/	.	.	8c\	.	16g/	.	16ee\LL	.	4C/	.	.	4c\	-cel-	.	.	.	4ee\)	.	4c/	.	.	.	4ee\	.
.	.	.	.	.	16g/	.	16ee\	.	.	.	.	.	.	.	.	.	.	.	.	.	.	.	.	.
8C/J	.	.	8c\J	.	16g/	.	16ee\	.	.	.	.	.	.	.	.	.	.	.	.	.	.	.	.	.
.	.	.	.	.	16g/JJ	.	16ee\JJ	.	.	.	.	.	.	.	.	.	.	.	.	.	.	.	.	.
*	*	*	*	*	*Xtremolo	*	*	*	*	*	*	*	*	*	*	*	*	*	*	*	*	*	*	*
!	!	!	!	!	!	!	!	!	!LO:LB:g=original	!	!	!	!	!	!	!	!LO:LB:g=original	!	!	!	!	!	!	!
=41	=41	=41	=41	=41	=41	=41	=41	=41	=41	=41	=41	=41	=41	=41	=41	=41	=41	=41	=41	=41	=41	=41	=41	=41
*	*	*	*	*	*	*	*^	*	*	*	*	*	*	*	*	*	*	*	*	*	*	*	*	*
4F\	.	.	4c\	.	4a/	.	4ff/	4a\	.	4F\	.	.	2c\	.	.	4a\	.	4ff\	.	4A/	.	4f\	.	4ff\	4ff\
4C/	.	.	4c\	.	4g/	.	4ee/	4g\	.	4C/	.	.	.	.	.	4g\	.	4ee\	.	4c/	.	4g\	.	4ee\	4gg\
4FF/	.	.	4c\	.	4a/	.	4ff/	4a\	.	4F\	-sis	.	4c\	-sis	.	4a\	-sis	4ff\	-sis	4A/	.	4f\	.	4ff\	4ff\
4r	.	.	4r	.	4r	.	4r	4ryy	.	4r	.	.	4r	.	.	4r	.	4r	.	4r	.	4r	.	4r	4r
*	*	*	*	*	*	*	*v	*v	*	*	*	*	*	*	*	*	*	*	*	*	*	*	*	*	*
==	==	==	==	==	==	==	==	==	==	==	==	==	==	==	==	==	==	==	==	==	==	==	==	==
*-	*-	*-	*-	*-	*-	*-	*-	*-	*-	*-	*-	*-	*-	*-	*-	*-	*-	*-	*-	*-	*-	*-	*-	*-
!!!system-decoration: [(g1)][(g2)][(g3)][(g4)]<s12>
!!!RDF**kern: > = above
!!!RDF**kern: < = below
!!!RDF**kern: | = vertical stroke
!!!RDF**dynam: p = "p:"
!!!AIN: 1 alto 1 bass 2 cor 2 flt 1 organ 1 soprn 1 tenor 1 viola 2 violn
!!!ENC: Krzysztof Stępień
!!!END: 2020-10-03
!!!ENC: Andrzej Kubiczek
!!!END: 2022-01-16
